;FLAVOR:Marlin
;TIME:2099
;Filament used: 0m, 1.59363m
;Layer height: 0.2
;MINX:134.34
;MINY:84.34
;MINZ:0.3
;MAXX:165.66
;MAXY:115.66
;MAXZ:19.9
;Generated with Cura_SteamEngine 4.7.0
T1
M82 ;absolute extrusion mode
;B2X300 machine settings
G90 ; use absolute coordinates octolapse
M906 X800 Y800 Z925 E1100 ; Stepper driver current
M916 E1 Z0 ; Stepper driver mode
M203 X200 Y200 Z6 E60 ; MAX feedrate
M201 X3000 Y3000 E10000 Z200 ; MAX acceleration
M205 X8 Y8 Z0.4 E2.5 ; Jerk settings
M204 P500 T750 ; acceleration speed

M104 S0 T1
M104 S160
M140 S85
M117 Heating Bed...
G28 ; Home
M190 S85
M117 Stabilizing Bed Temp
G4 S60
M117 Level bed...
G29 ; finding mesh
M420 S1
M900 K180 ; K-Factor PLA
G1 X296 Z1 F1200
G92 E0
M117 Heating Extruder...
M109 S240
M117 Prime line...
G1 Z0.4 F1200 ; move to layer height
G1 Y50 E20 F360 ; prime nozzle
G92 E0
M201 Z50
M77 ; Stop heat up timer
M75 ; Start print timer
M117 Printing...
M82 ;absolute extrusion mode
M109 S215
M83 ;relative extrusion mode
M83 ;relative extrusion mode
G1 F3000 E-3.5
;LAYER_COUNT:99
;LAYER:0
M107
M204 S750
M205 X4 Y4
G0 F3600 X165.475 Y111.392 Z0.3
M204 S250
;TYPE:SKIRT
G1 F1500 E3.5
G1 F1200 X165.27 Y112.033 E0.038
G1 X164.99 Y112.645 E0.03801
G1 X164.64 Y113.219 E0.03796
G1 X164.224 Y113.748 E0.038
G1 X163.749 Y114.223 E0.03793
G1 X163.22 Y114.639 E0.038
G1 X162.646 Y114.99 E0.03799
G1 X162.034 Y115.269 E0.03798
G1 X161.394 Y115.474 E0.03795
G1 X160.733 Y115.602 E0.03802
G1 X160.15 Y115.649 E0.03303
G1 X159.67 Y115.66 E0.02711
G1 X140.634 Y115.66 E1.07498
G1 X139.936 Y115.651 E0.03942
G1 X139.265 Y115.602 E0.03799
G1 X138.605 Y115.474 E0.03797
G1 X137.964 Y115.269 E0.038
G1 X137.353 Y114.989 E0.03795
G1 X136.779 Y114.639 E0.03796
G1 X136.25 Y114.223 E0.038
G1 X135.775 Y113.747 E0.03797
G1 X135.359 Y113.218 E0.038
G1 X135.009 Y112.644 E0.03796
G1 X134.73 Y112.032 E0.03798
G1 X134.525 Y111.391 E0.038
G1 X134.398 Y110.731 E0.03795
G1 X134.351 Y110.144 E0.03325
G1 X134.34 Y109.658 E0.02745
G1 X134.341 Y90.597 E1.07639
G1 X134.35 Y89.932 E0.03756
G1 X134.399 Y89.262 E0.03794
G1 X134.527 Y88.601 E0.03802
G1 X134.733 Y87.961 E0.03797
G1 X135.013 Y87.349 E0.03801
G1 X135.364 Y86.776 E0.03795
G1 X135.78 Y86.247 E0.038
G1 X136.256 Y85.772 E0.03797
G1 X136.785 Y85.357 E0.03797
G1 X137.36 Y85.007 E0.03801
G1 X137.972 Y84.728 E0.03798
G1 X138.612 Y84.524 E0.03793
G1 X139.273 Y84.397 E0.03801
G1 X139.85 Y84.351 E0.03269
G1 X140.33 Y84.34 E0.02711
G1 X159.293 Y84.34 E1.07085
G1 X160.072 Y84.351 E0.044
G1 X160.743 Y84.4 E0.03799
G1 X161.403 Y84.529 E0.03798
G1 X162.043 Y84.735 E0.03797
G1 X162.654 Y85.016 E0.03798
G1 X163.228 Y85.367 E0.03799
G1 X163.756 Y85.784 E0.03799
G1 X164.231 Y86.26 E0.03797
G1 X164.646 Y86.79 E0.03801
G1 X164.995 Y87.365 E0.03798
G1 X165.273 Y87.977 E0.03796
G1 X165.477 Y88.618 E0.03799
G1 X165.604 Y89.278 E0.03795
G1 X165.649 Y89.851 E0.03246
G1 X165.66 Y90.33 E0.02706
G1 X165.66 Y109.334 E1.07317
G1 X165.651 Y110.061 E0.04106
G1 X165.602 Y110.732 E0.03799
G1 X165.475 Y111.392 E0.03795
M204 S750
G0 F3600 X165.036 Y111.333
M204 S250
G1 F1200 X164.831 Y111.946 E0.0365
G1 X164.553 Y112.529 E0.03647
G1 X164.204 Y113.073 E0.0365
G1 X163.792 Y113.569 E0.03641
G1 X163.321 Y114.011 E0.03648
G1 X162.799 Y114.392 E0.03649
G1 X162.234 Y114.705 E0.03647
G1 X161.634 Y114.946 E0.03651
G1 X161.01 Y115.111 E0.03645
G1 X160.137 Y115.209 E0.04961
G1 X159.67 Y115.22 E0.02638
G1 X140.64 Y115.22 E1.07464
G1 X139.942 Y115.211 E0.03942
G1 X139.298 Y115.162 E0.03647
G1 X138.664 Y115.035 E0.03651
G1 X138.052 Y114.83 E0.03645
G1 X137.469 Y114.551 E0.0365
G1 X136.925 Y114.203 E0.03647
G1 X136.429 Y113.79 E0.03645
G1 X135.987 Y113.318 E0.03652
G1 X135.607 Y112.796 E0.03646
G1 X135.294 Y112.231 E0.03647
G1 X135.054 Y111.632 E0.03644
G1 X134.889 Y111.007 E0.0365
G1 X134.791 Y110.132 E0.04972
G1 X134.78 Y109.658 E0.02677
G1 X134.78 Y90.603 E1.07605
G1 X134.789 Y89.938 E0.03756
G1 X134.838 Y89.294 E0.03647
G1 X134.966 Y88.661 E0.03647
G1 X135.171 Y88.049 E0.03645
G1 X135.45 Y87.466 E0.0365
G1 X135.799 Y86.923 E0.03645
G1 X136.213 Y86.426 E0.03653
G1 X136.684 Y85.985 E0.03644
G1 X137.207 Y85.605 E0.03651
G1 X137.772 Y85.293 E0.03645
G1 X138.371 Y85.053 E0.03644
G1 X138.996 Y84.888 E0.0365
G1 X139.863 Y84.791 E0.04927
G1 X140.33 Y84.78 E0.02638
G1 X159.293 Y84.78 E1.07085
G1 X160.066 Y84.791 E0.04366
G1 X160.71 Y84.84 E0.03647
G1 X161.343 Y84.968 E0.03647
G1 X161.955 Y85.174 E0.03647
G1 X162.537 Y85.453 E0.03645
G1 X163.081 Y85.803 E0.03653
G1 X163.577 Y86.216 E0.03645
G1 X164.018 Y86.688 E0.03648
G1 X164.397 Y87.211 E0.03647
G1 X164.709 Y87.777 E0.0365
G1 X164.949 Y88.376 E0.03644
G1 X165.113 Y89.001 E0.03649
G1 X165.209 Y89.863 E0.04898
G1 X165.22 Y90.33 E0.02638
G1 X165.22 Y109.329 E1.07289
G1 X165.211 Y110.056 E0.04106
G1 X165.163 Y110.7 E0.03647
G1 X165.036 Y111.333 E0.03646
M204 S750
G1 F3000 E-3.5
;MESH:xyzCalibration_cube.stl
G0 F3600 X159.326 Y109.326
G0 X158.9 Y108.9
M204 S250
;TYPE:WALL-INNER
G1 F1500 E3.5
G1 F1200 X141.1 Y108.9 E1.00518
G1 X141.1 Y91.1 E1.00518
G1 X158.9 Y91.1 E1.00518
G1 X158.9 Y108.9 E1.00518
M204 S750
G0 F3600 X159.34 Y109.34
M204 S250
G1 F1200 X140.66 Y109.34 E1.05487
G1 X140.66 Y90.66 E1.05487
G1 X159.34 Y90.66 E1.05487
G1 X159.34 Y109.34 E1.05487
M204 S750
G1 F3000 E-3.5
G0 F3600 X159.78 Y109.78
M204 S250
;TYPE:WALL-OUTER
G1 F1500 E3.5
G1 F1200 X140.22 Y109.78 E1.10457
G1 X140.22 Y90.22 E1.10457
G1 X159.78 Y90.22 E1.10457
G1 X159.78 Y109.78 E1.10457
M204 S750
G0 F3600 X159.58 Y109.78
G0 X159.296 Y109.296
G1 F3000 E-3.5
G0 F3600 X159.24 Y109.296
G0 X158.879 Y91.76
M204 S250
;TYPE:SKIN
G1 F1500 E3.5
G1 F1200 X158.238 Y91.119 E0.04886
M204 S750
G0 F3600 X157.644 Y91.119
M204 S250
G1 F1200 X158.879 Y92.354 E0.09415
M204 S750
G0 F3600 X158.879 Y92.948
M204 S250
G1 F1200 X157.05 Y91.119 E0.13943
M204 S750
G0 F3600 X156.456 Y91.119
M204 S250
G1 F1200 X158.879 Y93.542 E0.18471
M204 S750
G0 F3600 X158.879 Y94.136
M204 S250
G1 F1200 X155.862 Y91.119 E0.22999
M204 S750
G0 F3600 X155.268 Y91.119
M204 S250
G1 F1200 X158.879 Y94.73 E0.27527
M204 S750
G0 F3600 X158.879 Y95.324
M204 S250
G1 F1200 X154.674 Y91.119 E0.32055
M204 S750
G0 F3600 X154.08 Y91.119
M204 S250
G1 F1200 X158.879 Y95.918 E0.36584
M204 S750
G0 F3600 X158.879 Y96.512
M204 S250
G1 F1200 X153.486 Y91.119 E0.41112
M204 S750
G0 F3600 X152.892 Y91.119
M204 S250
G1 F1200 X158.879 Y97.106 E0.4564
M204 S750
G0 F3600 X158.879 Y97.7
M204 S250
G1 F1200 X152.298 Y91.119 E0.50168
M204 S750
G0 F3600 X151.704 Y91.119
M204 S250
G1 F1200 X158.879 Y98.294 E0.54696
M204 S750
G0 F3600 X158.879 Y98.888
M204 S250
G1 F1200 X151.11 Y91.119 E0.59224
M204 S750
G0 F3600 X150.516 Y91.119
M204 S250
G1 F1200 X158.879 Y99.482 E0.63752
M204 S750
G0 F3600 X158.879 Y100.076
M204 S250
G1 F1200 X149.922 Y91.119 E0.68281
M204 S750
G0 F3600 X149.328 Y91.119
M204 S250
G1 F1200 X158.879 Y100.67 E0.72809
M204 S750
G0 F3600 X158.879 Y101.264
M204 S250
G1 F1200 X148.734 Y91.119 E0.77337
M204 S750
G0 F3600 X148.14 Y91.119
M204 S250
G1 F1200 X158.879 Y101.858 E0.81865
M204 S750
G0 F3600 X158.879 Y102.451
M204 S250
G1 F1200 X147.547 Y91.119 E0.86386
M204 S750
G0 F3600 X146.953 Y91.119
M204 S250
G1 F1200 X158.879 Y103.045 E0.90914
M204 S750
G0 F3600 X158.879 Y103.639
M204 S250
G1 F1200 X146.359 Y91.119 E0.95442
M204 S750
G0 F3600 X145.765 Y91.119
M204 S250
G1 F1200 X158.879 Y104.233 E0.9997
M204 S750
G0 F3600 X158.879 Y104.827
M204 S250
G1 F1200 X145.171 Y91.119 E1.04498
M204 S750
G0 F3600 X144.577 Y91.119
M204 S250
G1 F1200 X158.879 Y105.421 E1.09026
M204 S750
G0 F3600 X158.879 Y106.015
M204 S250
G1 F1200 X143.983 Y91.119 E1.13555
M204 S750
G0 F3600 X143.389 Y91.119
M204 S250
G1 F1200 X158.879 Y106.609 E1.18083
M204 S750
G0 F3600 X158.879 Y107.203
M204 S250
G1 F1200 X142.795 Y91.119 E1.22611
M204 S750
G0 F3600 X142.201 Y91.119
M204 S250
G1 F1200 X158.879 Y107.797 E1.27139
M204 S750
G0 F3600 X158.879 Y108.391
M204 S250
G1 F1200 X141.607 Y91.119 E1.31667
M204 S750
G0 F3600 X141.119 Y91.225
M204 S250
G1 F1200 X158.773 Y108.879 E1.34579
M204 S750
G0 F3600 X158.179 Y108.879
M204 S250
G1 F1200 X141.119 Y91.819 E1.30051
M204 S750
G0 F3600 X141.119 Y92.413
M204 S250
G1 F1200 X157.585 Y108.879 E1.25523
M204 S750
G0 F3600 X156.991 Y108.879
M204 S250
G1 F1200 X141.119 Y93.007 E1.20995
M204 S750
G0 F3600 X141.119 Y93.601
M204 S250
G1 F1200 X156.397 Y108.879 E1.16467
M204 S750
G0 F3600 X155.803 Y108.879
M204 S250
G1 F1200 X141.119 Y94.195 E1.11938
M204 S750
G0 F3600 X141.119 Y94.789
M204 S250
G1 F1200 X155.209 Y108.879 E1.0741
M204 S750
G0 F3600 X154.615 Y108.879
M204 S250
G1 F1200 X141.119 Y95.383 E1.02882
M204 S750
G0 F3600 X141.119 Y95.977
M204 S250
G1 F1200 X154.021 Y108.879 E0.98354
M204 S750
G0 F3600 X153.427 Y108.879
M204 S250
G1 F1200 X141.119 Y96.571 E0.93826
M204 S750
G0 F3600 X141.119 Y97.165
M204 S250
G1 F1200 X152.833 Y108.879 E0.89298
M204 S750
G0 F3600 X152.239 Y108.879
M204 S250
G1 F1200 X141.119 Y97.759 E0.8477
M204 S750
G0 F3600 X141.119 Y98.353
M204 S250
G1 F1200 X151.645 Y108.879 E0.80241
M204 S750
G0 F3600 X151.051 Y108.879
M204 S250
G1 F1200 X141.119 Y98.947 E0.75713
M204 S750
G0 F3600 X141.119 Y99.541
M204 S250
G1 F1200 X150.457 Y108.879 E0.71185
M204 S750
G0 F3600 X149.863 Y108.879
M204 S250
G1 F1200 X141.119 Y100.135 E0.66657
M204 S750
G0 F3600 X141.119 Y100.729
M204 S250
G1 F1200 X149.269 Y108.879 E0.62129
M204 S750
G0 F3600 X148.675 Y108.879
M204 S250
G1 F1200 X141.119 Y101.323 E0.57601
M204 S750
G0 F3600 X141.119 Y101.917
M204 S250
G1 F1200 X148.081 Y108.879 E0.53072
M204 S750
G0 F3600 X147.487 Y108.879
M204 S250
G1 F1200 X141.119 Y102.511 E0.48544
M204 S750
G0 F3600 X141.119 Y103.105
M204 S250
G1 F1200 X146.893 Y108.879 E0.44016
M204 S750
G0 F3600 X146.299 Y108.879
M204 S250
G1 F1200 X141.119 Y103.699 E0.39488
M204 S750
G0 F3600 X141.119 Y104.293
M204 S250
G1 F1200 X145.705 Y108.879 E0.3496
M204 S750
G0 F3600 X145.111 Y108.879
M204 S250
G1 F1200 X141.119 Y104.887 E0.30432
M204 S750
G0 F3600 X141.119 Y105.481
M204 S250
G1 F1200 X144.517 Y108.879 E0.25903
M204 S750
G0 F3600 X143.923 Y108.879
M204 S250
G1 F1200 X141.119 Y106.075 E0.21375
M204 S750
G0 F3600 X141.119 Y106.669
M204 S250
G1 F1200 X143.329 Y108.879 E0.16847
M204 S750
G0 F3600 X142.735 Y108.879
M204 S250
G1 F1200 X141.119 Y107.263 E0.12319
M204 S750
G0 F3600 X141.119 Y107.857
M204 S250
G1 F1200 X142.141 Y108.879 E0.07791
M204 S750
G0 F3600 X141.547 Y108.879
M104 S215
M204 S250
G1 F1200 X141.119 Y108.451 E0.03263
M204 S750
G1 F3000 E-3.5
;MESH:NONMESH
G0 F600 X141.119 Y108.451 Z0.5
G0 F3600 X158.9 Y108.9
;TIME_ELAPSED:74.319814
;LAYER:1
M106 S85
M205 X8 Y8
;TYPE:WALL-INNER
;MESH:xyzCalibration_cube.stl
G1 F1500 E3.5
G1 F2400 X141.1 Y108.9 E0.63821
G1 X141.1 Y91.1 E0.63821
G1 X158.9 Y91.1 E0.63821
G1 X158.9 Y108.9 E0.63821
G0 F6000 X159.34 Y109.34
G1 F2400 X140.66 Y109.34 E0.66976
G1 X140.66 Y90.66 E0.66976
G1 X159.34 Y90.66 E0.66976
G1 X159.34 Y109.34 E0.66976
G1 F3000 E-3.5
G0 F6000 X159.78 Y109.78
M204 S500
;TYPE:WALL-OUTER
G1 F1500 E3.5
G1 F1200 X140.22 Y109.78 E0.70131
G1 X140.22 Y90.22 E0.70131
G1 X159.78 Y90.22 E0.70131
G1 X159.78 Y109.78 E0.70131
M204 S750
G0 F6000 X159.58 Y109.78
G0 X159.296 Y109.296
G0 X158.879 Y108.407
M204 S500
;TYPE:SKIN
G1 F2400 X158.406 Y108.879 E0.02287
M204 S750
G0 F6000 X157.812 Y108.879
M204 S500
G1 F2400 X158.879 Y107.813 E0.05162
M204 S750
G0 F6000 X158.879 Y107.219
M204 S500
G1 F2400 X157.218 Y108.879 E0.08037
M204 S750
G0 F6000 X156.624 Y108.879
M204 S500
G1 F2400 X158.879 Y106.625 E0.10912
M204 S750
G0 F6000 X158.879 Y106.031
M204 S500
G1 F2400 X156.03 Y108.879 E0.13787
M204 S750
G0 F6000 X155.436 Y108.879
M204 S500
G1 F2400 X158.879 Y105.437 E0.16662
M204 S750
G0 F6000 X158.879 Y104.843
M204 S500
G1 F2400 X154.842 Y108.879 E0.19537
M204 S750
G0 F6000 X154.248 Y108.879
M204 S500
G1 F2400 X158.879 Y104.249 E0.22412
M204 S750
G0 F6000 X158.879 Y103.655
M204 S500
G1 F2400 X153.655 Y108.879 E0.25285
M204 S750
G0 F6000 X153.061 Y108.879
M204 S500
G1 F2400 X158.879 Y103.061 E0.2816
M204 S750
G0 F6000 X158.879 Y102.467
M204 S500
G1 F2400 X152.467 Y108.879 E0.31035
M204 S750
G0 F6000 X151.873 Y108.879
M204 S500
G1 F2400 X158.879 Y101.873 E0.3391
M204 S750
G0 F6000 X158.879 Y101.279
M204 S500
G1 F2400 X151.279 Y108.879 E0.36785
M204 S750
G0 F6000 X150.685 Y108.879
M204 S500
G1 F2400 X158.879 Y100.685 E0.3966
M204 S750
G0 F6000 X158.879 Y100.091
M204 S500
G1 F2400 X150.091 Y108.879 E0.42535
M204 S750
G0 F6000 X149.497 Y108.879
M204 S500
G1 F2400 X158.879 Y99.497 E0.4541
M204 S750
G0 F6000 X158.879 Y98.903
M204 S500
G1 F2400 X148.903 Y108.879 E0.48285
M204 S750
G0 F6000 X148.309 Y108.879
M204 S500
G1 F2400 X158.879 Y98.309 E0.5116
M204 S750
G0 F6000 X158.879 Y97.715
M204 S500
G1 F2400 X147.715 Y108.879 E0.54035
M204 S750
G0 F6000 X147.121 Y108.879
M204 S500
G1 F2400 X158.879 Y97.121 E0.5691
M204 S750
G0 F6000 X158.879 Y96.527
M204 S500
G1 F2400 X146.527 Y108.879 E0.59785
M204 S750
G0 F6000 X145.933 Y108.879
M204 S500
G1 F2400 X158.879 Y95.933 E0.6266
M204 S750
G0 F6000 X158.879 Y95.339
M204 S500
G1 F2400 X145.339 Y108.879 E0.65535
M204 S750
G0 F6000 X144.745 Y108.879
M204 S500
G1 F2400 X158.879 Y94.745 E0.6841
M204 S750
G0 F6000 X158.879 Y94.151
M204 S500
G1 F2400 X144.151 Y108.879 E0.71285
M204 S750
G0 F6000 X143.557 Y108.879
M204 S500
G1 F2400 X158.879 Y93.558 E0.74158
M204 S750
G0 F6000 X158.879 Y92.964
M204 S500
G1 F2400 X142.963 Y108.879 E0.77033
M204 S750
G0 F6000 X142.369 Y108.879
M204 S500
G1 F2400 X158.879 Y92.37 E0.79908
M204 S750
G0 F6000 X158.879 Y91.776
M204 S500
G1 F2400 X141.775 Y108.879 E0.82783
M204 S750
G0 F6000 X141.181 Y108.879
M204 S500
G1 F2400 X158.879 Y91.182 E0.85658
M204 S750
G0 F6000 X158.347 Y91.119
M204 S500
G1 F2400 X141.119 Y108.347 E0.83385
M204 S750
G0 F6000 X141.119 Y107.753
M204 S500
G1 F2400 X157.753 Y91.119 E0.8051
M204 S750
G0 F6000 X157.159 Y91.119
M204 S500
G1 F2400 X141.119 Y107.159 E0.77635
M204 S750
G0 F6000 X141.119 Y106.565
M204 S500
G1 F2400 X156.565 Y91.119 E0.7476
M204 S750
G0 F6000 X155.971 Y91.119
M204 S500
G1 F2400 X141.119 Y105.971 E0.71885
M204 S750
G0 F6000 X141.119 Y105.378
M204 S500
G1 F2400 X155.377 Y91.119 E0.69013
M204 S750
G0 F6000 X154.783 Y91.119
M204 S500
G1 F2400 X141.119 Y104.784 E0.66138
M204 S750
G0 F6000 X141.119 Y104.19
M204 S500
G1 F2400 X154.189 Y91.119 E0.63263
M204 S750
G0 F6000 X153.595 Y91.119
M204 S500
G1 F2400 X141.119 Y103.596 E0.60388
M204 S750
G0 F6000 X141.119 Y103.002
M204 S500
G1 F2400 X153.001 Y91.119 E0.57512
M204 S750
G0 F6000 X152.407 Y91.119
M204 S500
G1 F2400 X141.119 Y102.408 E0.54637
M204 S750
G0 F6000 X141.119 Y101.814
M204 S500
G1 F2400 X151.813 Y91.119 E0.51762
M204 S750
G0 F6000 X151.219 Y91.119
M204 S500
G1 F2400 X141.119 Y101.22 E0.48887
M204 S750
G0 F6000 X141.119 Y100.626
M204 S500
G1 F2400 X150.625 Y91.119 E0.46012
M204 S750
G0 F6000 X150.031 Y91.119
M204 S500
G1 F2400 X141.119 Y100.032 E0.43137
M204 S750
G0 F6000 X141.119 Y99.438
M204 S500
G1 F2400 X149.437 Y91.119 E0.40262
M204 S750
G0 F6000 X148.843 Y91.119
M204 S500
G1 F2400 X141.119 Y98.844 E0.37387
M204 S750
G0 F6000 X141.119 Y98.25
M204 S500
G1 F2400 X148.249 Y91.119 E0.34512
M204 S750
G0 F6000 X147.655 Y91.119
M204 S500
G1 F2400 X141.119 Y97.656 E0.31637
M204 S750
G0 F6000 X141.119 Y97.062
M204 S500
G1 F2400 X147.061 Y91.119 E0.28762
M204 S750
G0 F6000 X146.467 Y91.119
M204 S500
G1 F2400 X141.119 Y96.468 E0.25887
M204 S750
G0 F6000 X141.119 Y95.874
M204 S500
G1 F2400 X145.874 Y91.119 E0.23015
M204 S750
G0 F6000 X145.28 Y91.119
M204 S500
G1 F2400 X141.119 Y95.28 E0.2014
M204 S750
G0 F6000 X141.119 Y94.686
M204 S500
G1 F2400 X144.686 Y91.119 E0.17265
M204 S750
G0 F6000 X144.092 Y91.119
M204 S500
G1 F2400 X141.119 Y94.092 E0.1439
M204 S750
G0 F6000 X141.119 Y93.498
M204 S500
G1 F2400 X143.498 Y91.119 E0.11515
M204 S750
G0 F6000 X142.904 Y91.119
M204 S500
G1 F2400 X141.119 Y92.904 E0.0864
M204 S750
G0 F6000 X141.119 Y92.31
M204 S500
G1 F2400 X142.31 Y91.119 E0.05765
M204 S750
G0 F6000 X141.716 Y91.119
M204 S500
G1 F2400 X141.119 Y91.716 E0.0289
M204 S750
G1 F3000 E-3.5
;MESH:NONMESH
G0 F600 X141.119 Y91.716 Z0.7
G0 F6000 X158.9 Y108.9
;TIME_ELAPSED:108.240821
