;FLAVOR:Marlin
;TIME:611
;Filament used: 0.157335m, 0.163434m
;Layer height: 0.2
;POSTPROCESSED
;Generated with Cura_SteamEngine 3.5.1
T0
M82 ;absolute extrusion mode
G28
M104 S0 T0
M104 S0 T1
M104 S160
M140 S60
M906 X700 Y700 Z925 E1100 ; Stepper driver current
M916 E1 Z0 ; Stepper driver mode
M203 X200 Y200 Z6 E60 ; MAX feedrate
M201 X3000 Y3000 E10000 Z200 ; MAX acceleration
M205 X8 Y8 Z0.4 E2.5 ; Jerk settings
M204 P500 T750 ; acceleration speed
M117 Heating Bed...
M190 S60
M117 Stabilizing Bed Temp
M117 Level bed...
G28 Z ; home z
G29 ; finding mesh
M420 S1
M900 K150 ; K-Factor PLA
G1 X296 Z1 F1200
G92 E0
M117 Heating Extruder...
M109 S205
M117 Prime line...
G1 Z0.4 F1200 ; move to layer height
G1 Y50 E20 F360 ; prime nozzle
G92 E0
M201 Z50
M117 Printing...
M83 ;relative extrusion mode
G1 F2400 E-4.5
;LAYER_COUNT:3
M117 Printing Layer_0
M107
M104 T1 S160
G0 F3600 X60.196 Y19.303 Z0.2
;TYPE:SKIRT
G1 F3600 E4.5
G1 F1200 X60.39 Y18.863 E0.02327
G1 X60.654 Y18.461 E0.02327
G1 X60.981 Y18.108 E0.02329
G1 X61.362 Y17.814 E0.02329
G1 X61.787 Y17.587 E0.02332
G1 X62.105 Y17.471 E0.01638
G1 X66.403 Y16.184 E0.21712
G1 X71.607 Y14.34 E0.26718
G1 X75.943 Y12.569 E0.22666
G1 X76.402 Y12.425 E0.02328
G1 X77.064 Y12.354 E0.03222
G1 X77.431 Y12.357 E0.01776
G1 X77.91 Y12.401 E0.02328
G1 X78.375 Y12.523 E0.02326
G1 X78.836 Y12.734 E0.02454
G1 X79.062 Y12.862 E0.01257
G1 X79.46 Y13.133 E0.0233
G1 X79.807 Y13.466 E0.02327
G1 X80.095 Y13.852 E0.02331
G1 X80.289 Y14.221 E0.02017
G1 X82.248 Y18.69 E0.23614
G1 X82.34 Y18.928 E0.01235
G1 X83.383 Y22.026 E0.15819
G1 X85.372 Y27.159 E0.2664
G1 X87.646 Y32.169 E0.26626
G1 X90.2 Y37.043 E0.26629
G1 X93.012 Y41.741 E0.26497
G1 X94.513 Y44.026 E0.1323
G1 X97.738 Y48.503 E0.26702
G1 X101.186 Y52.76 E0.26511
G1 X104.877 Y56.827 E0.26579
G1 X108.8 Y60.683 E0.2662
G1 X112.933 Y64.311 E0.26614
G1 X115.046 Y66.012 E0.13127
G1 X119.494 Y69.292 E0.26745
G1 X124.08 Y72.291 E0.26517
G1 X128.834 Y75.028 E0.26547
G1 X133.742 Y77.496 E0.26585
G1 X138.815 Y79.696 E0.26759
G1 X141.351 Y80.67 E0.13147
G1 X146.553 Y82.418 E0.26558
G1 X151.862 Y83.874 E0.26641
G1 X157.259 Y85.034 E0.26714
G1 X159.898 Y85.482 E0.12954
G1 X165.378 Y86.178 E0.26733
G1 X170.876 Y86.563 E0.26672
G1 X174.249 Y86.648 E0.16328
G1 X174.646 Y86.685 E0.0193
G1 X181.445 Y87.802 E0.33344
G1 X186.891 Y88.355 E0.26491
G1 X192.373 Y88.6 E0.26556
G1 X197.878 Y88.534 E0.26643
G1 X203.347 Y88.159 E0.26529
G1 X209.092 Y87.446 E0.28015
G1 X209.448 Y87.424 E0.01726
G1 X216.211 Y87.421 E0.32729
G1 X216.497 Y87.435 E0.01386
G1 X223.394 Y88.115 E0.33539
G1 X228.88 Y88.315 E0.26566
G1 X234.363 Y88.205 E0.26539
G1 X239.835 Y87.784 E0.26559
G1 X245.291 Y87.052 E0.2664
G1 X246.566 Y86.819 E0.06272
G1 X246.698 Y86.798 E0.00647
G1 X248.505 Y86.554 E0.08824
G1 X248.899 Y86.528 E0.01911
G1 X255.679 Y86.541 E0.32811
G1 X256.158 Y86.582 E0.02327
G1 X256.624 Y86.701 E0.02328
G1 X256.943 Y86.834 E0.01673
G1 X257.405 Y87.059 E0.02487
G1 X257.818 Y87.305 E0.02326
G1 X258.186 Y87.616 E0.02332
G1 X258.497 Y87.983 E0.02328
G1 X258.634 Y88.195 E0.01222
G1 X258.747 Y88.387 E0.01078
G1 X258.956 Y88.821 E0.02331
G1 X259.09 Y89.283 E0.02328
G1 X259.148 Y89.842 E0.0272
G1 X259.17 Y93.93 E0.19784
G1 X259.133 Y94.41 E0.0233
G1 X259.046 Y94.784 E0.01858
G1 X258.486 Y96.64 E0.09382
G1 X257.08 Y102.014 E0.26882
G1 X256.099 Y106.768 E0.23491
G1 X255.963 Y107.23 E0.02331
G1 X255.752 Y107.663 E0.02331
G1 X255.473 Y108.055 E0.02328
G1 X255.133 Y108.395 E0.02327
G1 X254.741 Y108.675 E0.02331
G1 X254.309 Y108.885 E0.02325
G1 X253.847 Y109.022 E0.02332
G1 X253.259 Y109.082 E0.0286
G1 X177.048 Y109.091 E3.68812
G1 X171.516 Y109.248 E0.26782
G1 X166.032 Y109.714 E0.26635
G1 X160.596 Y110.488 E0.26572
G1 X155.236 Y111.563 E0.26455
G1 X152.566 Y112.217 E0.13303
G1 X147.278 Y113.753 E0.26648
G1 X142.087 Y115.586 E0.26641
G1 X137.035 Y117.699 E0.26501
G1 X132.086 Y120.105 E0.2663
G1 X127.303 Y122.774 E0.26506
G1 X122.649 Y125.73 E0.26681
G1 X118.204 Y128.918 E0.26471
G1 X113.93 Y132.366 E0.26575
G1 X109.821 Y136.083 E0.26814
G1 X107.919 Y137.955 E0.12915
G1 X104.142 Y142.006 E0.26803
G1 X100.639 Y146.215 E0.265
G1 X97.356 Y150.65 E0.26703
G1 X94.362 Y155.211 E0.26403
G1 X91.6 Y159.988 E0.26704
G1 X89.123 Y164.892 E0.26588
G1 X86.944 Y169.889 E0.26381
G1 X85.023 Y175.077 E0.26772
G1 X83.41 Y180.326 E0.26574
G1 X82.456 Y184.039 E0.18552
G1 X82.298 Y184.493 E0.02326
G1 X82.067 Y184.915 E0.02328
G1 X81.839 Y185.216 E0.01827
G1 X81.508 Y185.598 E0.02446
G1 X81.163 Y185.934 E0.02331
G1 X80.768 Y186.209 E0.02329
G1 X80.333 Y186.415 E0.02329
G1 X79.87 Y186.546 E0.02329
G1 X79.481 Y186.594 E0.01897
G1 X78.131 Y186.671 E0.06544
G1 X77.95 Y186.676 E0.00876
G1 X75.295 Y186.661 E0.12849
G1 X74.815 Y186.618 E0.02332
G1 X74.522 Y186.552 E0.01453
G1 X69.789 Y185.214 E0.23802
G1 X64.416 Y183.969 E0.26691
G1 X62.388 Y183.579 E0.09994
G1 X61.925 Y183.449 E0.02327
G1 X61.489 Y183.244 E0.02332
G1 X61.093 Y182.97 E0.0233
G1 X60.748 Y182.635 E0.02327
G1 X60.464 Y182.247 E0.02327
G1 X60.247 Y181.817 E0.02331
G1 X60.104 Y181.358 E0.02327
G1 X60.036 Y180.731 E0.03052
G1 X60.037 Y20.249 E7.76629
G1 X60.077 Y19.769 E0.02331
G1 X60.196 Y19.303 E0.02328
G1 F2400 E-4.5
G0 F3600 X60.795 Y19.411
G1 F3600 E4.5
G1 F1200 X60.988 Y19.028 E0.02075
G1 X61.248 Y18.688 E0.02071
G1 X61.567 Y18.401 E0.02077
G1 X61.934 Y18.179 E0.02076
G1 X62.277 Y18.046 E0.0178
G1 X66.591 Y16.754 E0.21793
G1 X71.826 Y14.899 E0.26877
G1 X76.17 Y13.125 E0.22708
G1 X76.58 Y13 E0.02074
G1 X77.059 Y12.954 E0.02329
G1 X77.426 Y12.957 E0.01776
G1 X77.852 Y13 E0.02072
G1 X78.263 Y13.122 E0.02075
G1 X78.54 Y13.256 E0.01489
G1 X78.766 Y13.384 E0.01257
G1 X79.118 Y13.629 E0.02075
G1 X79.418 Y13.935 E0.02074
G1 X79.74 Y14.462 E0.02989
G1 X81.699 Y18.931 E0.23614
G1 X81.772 Y19.12 E0.0098
G1 X82.82 Y22.231 E0.15887
G1 X84.825 Y27.407 E0.26862
G1 X87.107 Y32.435 E0.26721
G1 X89.663 Y37.313 E0.26651
G1 X92.523 Y42.091 E0.26948
G1 X94.013 Y44.358 E0.13128
G1 X97.251 Y48.855 E0.26817
G1 X100.733 Y53.153 E0.26769
G1 X104.453 Y57.252 E0.26788
G1 X108.389 Y61.121 E0.26709
G1 X112.549 Y64.773 E0.26789
G1 X114.685 Y66.492 E0.13269
G1 X119.137 Y69.776 E0.26772
G1 X123.769 Y72.804 E0.26781
G1 X128.555 Y75.559 E0.26724
G1 X133.495 Y78.043 E0.26759
G1 X138.572 Y80.245 E0.26781
G1 X141.156 Y81.237 E0.13395
G1 X146.382 Y82.994 E0.26682
G1 X151.701 Y84.453 E0.26691
G1 X157.146 Y85.623 E0.26952
G1 X159.821 Y86.076 E0.1313
G1 X165.33 Y86.776 E0.26874
G1 X170.841 Y87.162 E0.26735
G1 X174.234 Y87.248 E0.16425
G1 X174.549 Y87.277 E0.01531
G1 X181.369 Y88.397 E0.33446
G1 X186.839 Y88.952 E0.26607
G1 X192.371 Y89.2 E0.26798
G1 X197.891 Y89.134 E0.26715
G1 X203.426 Y88.754 E0.26849
G1 X209.166 Y88.042 E0.27991
G1 X209.448 Y88.024 E0.01367
G1 X216.211 Y88.021 E0.32729
G1 X216.438 Y88.032 E0.011
G1 X223.361 Y88.715 E0.33665
G1 X228.852 Y88.915 E0.2659
G1 X234.405 Y88.803 E0.26878
G1 X239.889 Y88.381 E0.26617
G1 X245.39 Y87.643 E0.2686
G1 X246.673 Y87.409 E0.06311
G1 X246.778 Y87.393 E0.00514
G1 X248.585 Y87.149 E0.08824
G1 X248.897 Y87.128 E0.01513
G1 X255.677 Y87.141 E0.32811
G1 X256.104 Y87.182 E0.02076
G1 X256.68 Y87.373 E0.02937
G1 X257.142 Y87.598 E0.02487
G1 X257.508 Y87.821 E0.02074
G1 X257.827 Y88.108 E0.02077
G1 X258.117 Y88.499 E0.02356
G1 X258.23 Y88.691 E0.01078
G1 X258.412 Y89.079 E0.02074
G1 X258.519 Y89.494 E0.02074
G1 X258.548 Y89.846 E0.01709
G1 X258.57 Y93.934 E0.19784
G1 X258.532 Y94.36 E0.0207
G1 X258.472 Y94.61 E0.01244
G1 X257.903 Y96.497 E0.09538
G1 X256.497 Y101.873 E0.26891
G1 X255.511 Y106.647 E0.23591
G1 X255.386 Y107.057 E0.02074
G1 X255.187 Y107.436 E0.02072
G1 X254.921 Y107.772 E0.02074
G1 X254.597 Y108.053 E0.02075
G1 X254.227 Y108.268 E0.02071
G1 X253.823 Y108.412 E0.02076
G1 X253.259 Y108.482 E0.0275
G1 X177.031 Y108.491 E3.68894
G1 X171.483 Y108.648 E0.26859
G1 X165.968 Y109.117 E0.26785
G1 X160.498 Y109.896 E0.26738
G1 X155.093 Y110.98 E0.26678
G1 X152.423 Y111.634 E0.13303
G1 X147.09 Y113.183 E0.26875
G1 X141.875 Y115.025 E0.26765
G1 X136.794 Y117.149 E0.26651
G1 X131.799 Y119.577 E0.26877
G1 X126.998 Y122.258 E0.26611
G1 X122.322 Y125.227 E0.26805
G1 X117.826 Y128.452 E0.26776
G1 X113.538 Y131.911 E0.26661
G1 X109.409 Y135.647 E0.26947
G1 X107.483 Y137.542 E0.13076
G1 X103.7 Y141.599 E0.26844
G1 X100.169 Y145.842 E0.26713
G1 X96.868 Y150.3 E0.26844
G1 X93.837 Y154.918 E0.26732
G1 X91.077 Y159.692 E0.26686
G1 X88.58 Y164.636 E0.26804
G1 X86.388 Y169.661 E0.26531
G1 X84.457 Y174.876 E0.26912
G1 X82.83 Y180.171 E0.26807
G1 X81.875 Y183.889 E0.18577
G1 X81.73 Y184.293 E0.02077
G1 X81.385 Y184.823 E0.0306
G1 X81.054 Y185.205 E0.02446
G1 X80.745 Y185.501 E0.02071
G1 X80.386 Y185.735 E0.02074
G1 X79.989 Y185.898 E0.02077
G1 X79.447 Y185.995 E0.02665
G1 X78.097 Y186.072 E0.06544
G1 X77.953 Y186.076 E0.00697
G1 X75.298 Y186.061 E0.12849
G1 X74.685 Y185.974 E0.02996
G1 X69.957 Y184.638 E0.23776
G1 X64.538 Y183.382 E0.2692
G1 X62.501 Y182.99 E0.10039
G1 X62.09 Y182.87 E0.02072
G1 X61.708 Y182.676 E0.02073
G1 X61.369 Y182.414 E0.02073
G1 X61.084 Y182.094 E0.02074
G1 X60.863 Y181.727 E0.02073
G1 X60.714 Y181.325 E0.02075
G1 X60.636 Y180.731 E0.02899
G1 X60.637 Y20.249 E7.76629
G1 X60.677 Y19.822 E0.02075
G1 X60.795 Y19.411 E0.02069
G1 F2400 E-4.5
G0 F3600 X165.063 Y102.405
G0 X165.041 Y105.419
G0 X169.039 Y105.461
G0 X169.069 Y105.391
;TYPE:WALL-OUTER
G1 F3600 E4.5
G1 F1200 X172.969 Y105.391 E0.12582
G1 X172.969 Y102.316 E0.09921
G1 X173.069 Y102.316 E0.00323
G1 X173.069 Y105.391 E0.09921
G1 X176.969 Y105.391 E0.12582
G1 X176.969 Y102.316 E0.09921
G1 X177.039 Y102.316 E0.00226
G1 X177.039 Y102.391 E0.00242
G1 X177.069 Y102.391 E0.00097
G1 X177.069 Y105.391 E0.09679
G1 X180.969 Y105.391 E0.12582
G1 X180.969 Y102.316 E0.09921
G1 X180.989 Y102.316 E0.00065
G1 X180.989 Y102.391 E0.00242
G1 X181.069 Y102.391 E0.00258
G1 X181.069 Y105.391 E0.09679
G1 X184.969 Y105.391 E0.12582
G1 X184.969 Y102.391 E0.09679
G1 X185.069 Y102.391 E0.00323
G1 X185.069 Y105.391 E0.09679
G1 X188.969 Y105.391 E0.12582
G1 X188.969 Y102.391 E0.09679
G1 X189.069 Y102.391 E0.00323
G1 X189.069 Y105.391 E0.09679
G1 X192.969 Y105.391 E0.12582
G1 X192.969 Y102.391 E0.09679
G1 X193.069 Y102.391 E0.00323
G1 X193.069 Y105.391 E0.09679
G1 X196.969 Y105.391 E0.12582
G1 X196.969 Y102.391 E0.09679
G1 X197.069 Y102.391 E0.00323
G1 X197.069 Y105.391 E0.09679
G1 X200.969 Y105.391 E0.12582
G1 X200.969 Y102.391 E0.09679
G1 X201.069 Y102.391 E0.00323
G1 X201.069 Y105.391 E0.09679
G1 X204.969 Y105.391 E0.12582
G1 X204.969 Y102.391 E0.09679
G1 X205.069 Y102.391 E0.00323
G1 X205.069 Y105.391 E0.09679
G1 X208.969 Y105.391 E0.12582
G1 X208.969 Y102.391 E0.09679
G1 X209.069 Y102.391 E0.00323
G1 X209.069 Y105.391 E0.09679
G1 X212.969 Y105.391 E0.12582
G1 X212.969 Y102.391 E0.09679
G1 X213.069 Y102.391 E0.00323
G1 X213.069 Y105.391 E0.09679
G1 X216.969 Y105.391 E0.12582
G1 X216.969 Y102.391 E0.09679
G1 X217.069 Y102.391 E0.00323
G1 X217.069 Y105.391 E0.09679
G1 X220.969 Y105.391 E0.12582
G1 X220.969 Y102.391 E0.09679
G1 X221.069 Y102.391 E0.00323
G1 X221.069 Y105.391 E0.09679
G1 X224.969 Y105.391 E0.12582
G1 X224.969 Y102.391 E0.09679
G1 X225.069 Y102.391 E0.00323
G1 X225.069 Y105.391 E0.09679
G1 X228.969 Y105.391 E0.12582
G1 X228.969 Y102.391 E0.09679
G1 X229.069 Y102.391 E0.00323
G1 X229.069 Y105.391 E0.09679
G1 X232.969 Y105.391 E0.12582
G1 X232.969 Y102.391 E0.09679
G1 X233.069 Y102.391 E0.00323
G1 X233.069 Y105.391 E0.09679
G1 X236.969 Y105.391 E0.12582
G1 X236.969 Y102.391 E0.09679
G1 X237.069 Y102.391 E0.00323
G1 X237.069 Y105.391 E0.09679
G1 X240.969 Y105.391 E0.12582
G1 X240.969 Y102.391 E0.09679
G1 X241.069 Y102.391 E0.00323
G1 X241.069 Y105.391 E0.09679
G1 X244.969 Y105.391 E0.12582
G1 X244.969 Y102.391 E0.09679
G1 X245.069 Y102.391 E0.00323
G1 X245.069 Y105.391 E0.09679
G1 X248.969 Y105.391 E0.12582
G1 X248.969 Y102.391 E0.09679
G1 X249.069 Y102.391 E0.00323
G1 X249.069 Y105.391 E0.09679
G1 X252.969 Y105.391 E0.12582
G1 X252.969 Y102.391 E0.09679
G1 X253.069 Y102.391 E0.00323
G1 X253.069 Y105.991 E0.11614
G1 X92.969 Y105.991 E5.1652
G1 X92.969 Y102.391 E0.11614
G1 X93.069 Y102.391 E0.00323
G1 X93.069 Y105.391 E0.09679
G1 X96.969 Y105.391 E0.12582
G1 X96.969 Y102.391 E0.09679
G1 X97.069 Y102.391 E0.00323
G1 X97.069 Y105.391 E0.09679
G1 X100.969 Y105.391 E0.12582
G1 X100.969 Y102.391 E0.09679
G1 X101.069 Y102.391 E0.00323
G1 X101.069 Y105.391 E0.09679
G1 X104.969 Y105.391 E0.12582
G1 X104.969 Y102.391 E0.09679
G1 X105.069 Y102.391 E0.00323
G1 X105.069 Y105.391 E0.09679
G1 X108.969 Y105.391 E0.12582
G1 X108.969 Y102.391 E0.09679
G1 X109.069 Y102.391 E0.00323
G1 X109.069 Y105.391 E0.09679
G1 X112.969 Y105.391 E0.12582
G1 X112.969 Y102.391 E0.09679
G1 X113.069 Y102.391 E0.00323
G1 X113.069 Y105.391 E0.09679
G1 X116.969 Y105.391 E0.12582
G1 X116.969 Y102.391 E0.09679
G1 X117.069 Y102.391 E0.00323
G1 X117.069 Y105.391 E0.09679
G1 X120.969 Y105.391 E0.12582
G1 X120.969 Y102.391 E0.09679
G1 X121.069 Y102.391 E0.00323
G1 X121.069 Y105.391 E0.09679
G1 X124.969 Y105.391 E0.12582
G1 X124.969 Y102.391 E0.09679
G1 X125.069 Y102.391 E0.00323
G1 X125.069 Y105.391 E0.09679
G1 X128.969 Y105.391 E0.12582
G1 X128.969 Y102.391 E0.09679
G1 X129.069 Y102.391 E0.00323
G1 X129.069 Y105.391 E0.09679
G1 X132.969 Y105.391 E0.12582
G1 X132.969 Y102.391 E0.09679
G1 X133.069 Y102.391 E0.00323
G1 X133.069 Y105.391 E0.09679
G1 X136.969 Y105.391 E0.12582
G1 X136.969 Y102.391 E0.09679
G1 X137.069 Y102.391 E0.00323
G1 X137.069 Y105.391 E0.09679
G1 X140.969 Y105.391 E0.12582
G1 X140.969 Y102.391 E0.09679
G1 X141.069 Y102.391 E0.00323
G1 X141.069 Y105.391 E0.09679
G1 X144.969 Y105.391 E0.12582
G1 X144.969 Y102.391 E0.09679
G1 X145.069 Y102.391 E0.00323
G1 X145.069 Y105.391 E0.09679
G1 X148.969 Y105.391 E0.12582
G1 X148.969 Y102.391 E0.09679
G1 X149.069 Y102.391 E0.00323
G1 X149.069 Y105.391 E0.09679
G1 X152.969 Y105.391 E0.12582
G1 X152.969 Y102.391 E0.09679
G1 X153.069 Y102.391 E0.00323
G1 X153.069 Y105.391 E0.09679
G1 X156.969 Y105.391 E0.12582
G1 X156.969 Y102.391 E0.09679
G1 X157.069 Y102.391 E0.00323
G1 X157.069 Y105.391 E0.09679
G1 X160.969 Y105.391 E0.12582
G1 X160.969 Y102.391 E0.09679
G1 X161.069 Y102.391 E0.00323
G1 X161.069 Y105.391 E0.09679
G1 X164.969 Y105.391 E0.12582
G1 X164.969 Y102.391 E0.09679
G1 X165.049 Y102.391 E0.00258
G1 X165.049 Y102.316 E0.00242
G1 X165.069 Y102.316 E0.00065
G1 X165.069 Y105.391 E0.09921
G1 X168.969 Y105.391 E0.12582
G1 X168.969 Y102.391 E0.09679
G1 X168.999 Y102.391 E0.00097
G1 X168.999 Y102.316 E0.00242
G1 X169.069 Y102.316 E0.00226
G1 X169.069 Y105.391 E0.09921
G0 F3600 X169.125 Y105.486
;TYPE:SKIN
G1 F1200 X169.534 Y105.894 E0.00932
G0 F3600 X169.817 Y105.894
G1 F1200 X169.408 Y105.486 E0.00932
G0 F3600 X169.691 Y105.486
G1 F1200 X170.1 Y105.894 E0.00932
G0 F3600 X170.383 Y105.894
G1 F1200 X169.974 Y105.486 E0.00932
G0 F3600 X170.257 Y105.486
G1 F1200 X170.665 Y105.894 E0.00931
G0 F3600 X170.948 Y105.894
G1 F1200 X170.54 Y105.486 E0.00931
G0 F3600 X170.822 Y105.486
G1 F1200 X171.231 Y105.894 E0.00932
G0 F3600 X171.514 Y105.894
G1 F1200 X171.105 Y105.486 E0.00932
G0 F3600 X171.388 Y105.486
G1 F1200 X171.797 Y105.894 E0.00932
G0 F3600 X172.08 Y105.894
G1 F1200 X171.671 Y105.486 E0.00932
G0 F3600 X171.954 Y105.486
G1 F1200 X172.362 Y105.894 E0.00931
G0 F3600 X172.645 Y105.894
G1 F1200 X172.237 Y105.486 E0.00931
G0 F3600 X172.519 Y105.486
G1 F1200 X172.928 Y105.894 E0.00932
G0 F3600 X173.212 Y105.895
G1 F1200 X172.802 Y105.486 E0.00934
G0 F3600 X173.085 Y105.486
G1 F1200 X173.495 Y105.895 E0.00934
G0 F3600 X173.777 Y105.895
