;FLAVOR:Marlin
;TIME:8132
;Filament used: 4.24667m, 0m
;Layer height: 0.2
;MINX:121.4
;MINY:90.9
;MINZ:0.3
;MAXX:178.6
;MAXY:109.1
;MAXZ:62.1
;Generated with Cura_SteamEngine 4.8.0
T0
M82 ;absolute extrusion mode
;B2X300 machine settings
G90 ; use absolute coordinates octolapse
M906 X800 Y800 Z925 E1100 ; Stepper driver current
M916 E1 Z0 ; Stepper driver mode
M203 X200 Y200 Z6 E60 ; MAX feedrate
M201 X3000 Y3000 E10000 Z200 ; MAX acceleration
M205 X8 Y8 Z0.4 E2.5 ; Jerk settings
M204 P500 T750 ; acceleration speed

M104 S0 T0
M104 S0 T1
M104 S160
M140 S50
M117 Heating Bed...
G28 ; Home
M190 S50
M117 Stabilizing Bed Temp
G4 S60
M117 Level bed...
G29 ; finding mesh
M420 S1
M900 K180 ; K-Factor PLA
G1 X296 Z1 F1200
G92 E0
M117 Heating Extruder...
M109 S230
M117 Prime line...
G1 Z0.4 F1200 ; move to layer height
G1 Y50 E20 F360 ; prime nozzle
G92 E0
M201 Z50 ; Set Z print acceleration
M77 ; Stop heat up timer
M75 ; Start print timer
M117 Printing...
M82 ;absolute extrusion mode
M109 S215
M83 ;relative extrusion mode
M83 ;relative extrusion mode
G1 F2400 E-3.5
;LAYER_COUNT:310
;LAYER:0
M107
M204 S750
M205 X8 Y8
G0 F3600 X178.421 Y107.415 Z0.3
M204 S500
;TYPE:SKIRT
G1 F2400 E3.5
G1 F1200 X178.223 Y107.825 E0.02182
G1 X177.956 Y108.194 E0.02182
G1 X177.628 Y108.511 E0.02186
G1 X177.25 Y108.766 E0.02185
G1 X176.834 Y108.951 E0.02181
G1 X176.392 Y109.06 E0.02181
G1 X176.064 Y109.09 E0.01578
G1 X175.67 Y109.1 E0.01888
G1 X124.673 Y109.1 E2.4435
G1 X123.975 Y109.091 E0.03345
G1 X123.522 Y109.045 E0.02182
G1 X123.084 Y108.921 E0.02181
G1 X122.674 Y108.722 E0.02184
G1 X122.305 Y108.455 E0.02182
G1 X121.988 Y108.127 E0.02186
G1 X121.734 Y107.749 E0.02182
G1 X121.549 Y107.333 E0.02181
G1 X121.44 Y106.89 E0.02186
G1 X121.41 Y106.561 E0.01583
G1 X121.4 Y106.158 E0.01932
G1 X121.4 Y94.139 E0.57588
G1 X121.409 Y93.474 E0.03187
G1 X121.455 Y93.021 E0.02182
G1 X121.58 Y92.582 E0.02187
G1 X121.779 Y92.172 E0.02184
G1 X122.046 Y91.804 E0.02178
G1 X122.374 Y91.487 E0.02186
G1 X122.752 Y91.233 E0.02182
G1 X123.169 Y91.048 E0.02186
G1 X123.611 Y90.94 E0.0218
G1 X123.936 Y90.91 E0.01564
G1 X124.33 Y90.9 E0.01888
G1 X175.33 Y90.9 E2.44364
G1 X176.028 Y90.91 E0.03345
G1 X176.482 Y90.957 E0.02187
G1 X176.92 Y91.082 E0.02182
G1 X177.329 Y91.281 E0.02179
G1 X177.698 Y91.549 E0.02185
G1 X178.014 Y91.877 E0.02182
G1 X178.268 Y92.255 E0.02182
G1 X178.452 Y92.672 E0.02184
G1 X178.561 Y93.114 E0.02181
G1 X178.59 Y93.437 E0.01554
G1 X178.6 Y93.83 E0.01884
G1 X178.6 Y105.796 E0.57335
G1 X178.591 Y106.523 E0.03484
G1 X178.545 Y106.977 E0.02186
G1 X178.421 Y107.415 E0.02181
M204 S750
G0 F3600 X178.023 Y107.335
M204 S500
G1 F1200 X177.826 Y107.705 E0.02008
G1 X177.562 Y108.031 E0.0201
G1 X177.242 Y108.301 E0.02006
G1 X176.876 Y108.505 E0.02008
G1 X176.478 Y108.636 E0.02008
G1 X176.053 Y108.69 E0.02053
G1 X175.67 Y108.7 E0.01836
G1 X124.679 Y108.7 E2.44321
G1 X123.981 Y108.691 E0.03345
G1 X123.564 Y108.646 E0.0201
G1 X123.164 Y108.522 E0.02007
G1 X122.794 Y108.325 E0.02008
G1 X122.468 Y108.061 E0.0201
G1 X122.198 Y107.741 E0.02006
G1 X121.994 Y107.375 E0.02008
G1 X121.863 Y106.977 E0.02008
G1 X121.81 Y106.55 E0.02062
G1 X121.8 Y106.158 E0.01879
G1 X121.8 Y94.144 E0.57565
G1 X121.809 Y93.479 E0.03187
G1 X121.855 Y93.063 E0.02005
G1 X121.978 Y92.662 E0.0201
G1 X122.176 Y92.293 E0.02006
G1 X122.44 Y91.967 E0.0201
G1 X122.761 Y91.698 E0.02007
G1 X123.127 Y91.494 E0.02008
G1 X123.525 Y91.363 E0.02008
G1 X123.947 Y91.31 E0.02038
G1 X124.33 Y91.3 E0.01836
G1 X175.325 Y91.3 E2.4434
G1 X176.023 Y91.31 E0.03345
G1 X176.439 Y91.356 E0.02005
G1 X176.839 Y91.48 E0.02007
G1 X177.209 Y91.678 E0.02011
G1 X177.534 Y91.942 E0.02006
G1 X177.803 Y92.263 E0.02007
G1 X178.007 Y92.629 E0.02008
G1 X178.137 Y93.027 E0.02006
G1 X178.19 Y93.448 E0.02033
G1 X178.2 Y93.83 E0.01831
G1 X178.2 Y105.791 E0.57311
G1 X178.191 Y106.518 E0.03484
G1 X178.146 Y106.935 E0.0201
G1 X178.023 Y107.335 E0.02005
M204 S750
G1 F2400 E-3.5
;MESH:190-230_PLA_Temp_calibration.stl
G0 F3600 X175.386 Y105.886
G0 X175 Y105.5
M204 S500
;TYPE:WALL-INNER
G1 F2400 E3.5
G1 F1200 X125 Y105.5 E2.39573
G1 X125 Y94.5 E0.52706
G1 X175 Y94.5 E2.39573
G1 X175 Y105.5 E0.52706
M204 S750
G0 F3600 X175.4 Y105.9
M204 S500
G1 F1200 X124.6 Y105.9 E2.43406
G1 X124.6 Y94.1 E0.56539
G1 X175.4 Y94.1 E2.43406
G1 X175.4 Y105.9 E0.56539
M204 S750
G1 F2400 E-3.5
G0 F3600 X175.8 Y106.3
M204 S500
;TYPE:WALL-OUTER
G1 F2400 E3.5
G1 F1200 X124.2 Y106.3 E2.47239
G1 X124.2 Y93.7 E0.60372
G1 X175.8 Y93.7 E2.47239
G1 X175.8 Y106.3 E0.60372
M204 S750
G1 F2400 E-3.5
G0 F3600 X175.33 Y105.83
G0 X174.999 Y94.672
M204 S500
;TYPE:SKIN
G1 F2400 E3.5
G1 F1200 X174.827 Y94.499 E0.01169
M204 S750
G0 F3600 X174.261 Y94.499
M204 S500
G1 F1200 X174.999 Y95.238 E0.05004
M204 S750
G0 F3600 X174.999 Y95.803
M204 S500
G1 F1200 X173.695 Y94.499 E0.08836
M204 S750
G0 F3600 X173.13 Y94.499
M204 S500
G1 F1200 X174.999 Y96.369 E0.12668
M204 S750
G0 F3600 X174.999 Y96.935
M204 S500
G1 F1200 X172.564 Y94.499 E0.16503
M204 S750
G0 F3600 X171.998 Y94.499
M204 S500
G1 F1200 X174.999 Y97.5 E0.20335
M204 S750
G0 F3600 X174.999 Y98.066
M204 S500
G1 F1200 X171.433 Y94.499 E0.24167
M204 S750
G0 F3600 X170.867 Y94.499
M204 S500
G1 F1200 X174.999 Y98.632 E0.28002
M204 S750
G0 F3600 X174.999 Y99.197
M204 S500
G1 F1200 X170.301 Y94.499 E0.31834
M204 S750
G0 F3600 X169.736 Y94.499
M204 S500
G1 F1200 X174.999 Y99.763 E0.35666
M204 S750
G0 F3600 X174.999 Y100.329
M204 S500
G1 F1200 X169.17 Y94.499 E0.39502
M204 S750
G0 F3600 X168.604 Y94.499
M204 S500
G1 F1200 X174.999 Y100.894 E0.43333
M204 S750
G0 F3600 X174.999 Y101.46
M204 S500
G1 F1200 X168.038 Y94.499 E0.47169
M204 S750
G0 F3600 X167.473 Y94.499
M204 S500
G1 F1200 X174.999 Y102.026 E0.51001
M204 S750
G0 F3600 X174.999 Y102.592
M204 S500
G1 F1200 X166.907 Y94.499 E0.54836
M204 S750
G0 F3600 X166.341 Y94.499
M204 S500
G1 F1200 X174.999 Y103.157 E0.58668
M204 S750
G0 F3600 X174.999 Y103.723
M204 S500
G1 F1200 X165.776 Y94.499 E0.625
M204 S750
G0 F3600 X165.21 Y94.499
M204 S500
G1 F1200 X174.999 Y104.289 E0.66335
M204 S750
G0 F3600 X174.999 Y104.854
M204 S500
G1 F1200 X164.644 Y94.499 E0.70167
M204 S750
G0 F3600 X164.079 Y94.499
M204 S500
G1 F1200 X174.999 Y105.42 E0.73999
M204 S750
G0 F3600 X174.513 Y105.5
M204 S500
G1 F1200 X163.513 Y94.499 E0.74541
M204 S750
G0 F3600 X162.947 Y94.499
M204 S500
G1 F1200 X173.948 Y105.5 E0.74544
M204 S750
G0 F3600 X173.382 Y105.5
M204 S500
G1 F1200 X162.382 Y94.499 E0.74541
M204 S750
G0 F3600 X161.816 Y94.499
M204 S500
G1 F1200 X172.816 Y105.5 E0.74541
M204 S750
G0 F3600 X172.251 Y105.5
M204 S500
G1 F1200 X161.25 Y94.499 E0.74544
M204 S750
G0 F3600 X160.685 Y94.499
M204 S500
G1 F1200 X171.685 Y105.5 E0.74541
M204 S750
G0 F3600 X171.119 Y105.5
M204 S500
G1 F1200 X160.119 Y94.499 E0.74541
M204 S750
G0 F3600 X159.553 Y94.499
M204 S500
G1 F1200 X170.554 Y105.5 E0.74544
M204 S750
G0 F3600 X169.988 Y105.5
M204 S500
G1 F1200 X158.988 Y94.499 E0.74541
M204 S750
G0 F3600 X158.422 Y94.499
M204 S500
G1 F1200 X169.422 Y105.5 E0.74541
M204 S750
G0 F3600 X168.857 Y105.5
M204 S500
G1 F1200 X157.856 Y94.499 E0.74544
M204 S750
G0 F3600 X157.29 Y94.499
M204 S500
G1 F1200 X168.291 Y105.5 E0.74544
M204 S750
G0 F3600 X167.725 Y105.5
M204 S500
G1 F1200 X156.725 Y94.499 E0.74541
M204 S750
G0 F3600 X156.159 Y94.499
M204 S500
G1 F1200 X167.16 Y105.5 E0.74544
M204 S750
G0 F3600 X166.594 Y105.5
M204 S500
G1 F1200 X155.593 Y94.499 E0.74544
M204 S750
G0 F3600 X155.028 Y94.499
M204 S500
G1 F1200 X166.028 Y105.5 E0.74541
M204 S750
G0 F3600 X165.462 Y105.5
M204 S500
G1 F1200 X154.462 Y94.499 E0.74541
M204 S750
G0 F3600 X153.896 Y94.499
M204 S500
G1 F1200 X164.897 Y105.5 E0.74544
M204 S750
G0 F3600 X164.331 Y105.5
M204 S500
G1 F1200 X153.331 Y94.499 E0.74541
M204 S750
G0 F3600 X152.765 Y94.499
M204 S500
G1 F1200 X163.765 Y105.5 E0.74541
M204 S750
G0 F3600 X163.2 Y105.5
M204 S500
G1 F1200 X152.199 Y94.499 E0.74544
M204 S750
G0 F3600 X151.634 Y94.499
M204 S500
G1 F1200 X162.634 Y105.5 E0.74541
M204 S750
G0 F3600 X162.068 Y105.5
M204 S500
G1 F1200 X151.068 Y94.499 E0.74541
M204 S750
G0 F3600 X150.502 Y94.499
M204 S500
G1 F1200 X161.503 Y105.5 E0.74544
M204 S750
G0 F3600 X160.937 Y105.5
M204 S500
G1 F1200 X149.937 Y94.499 E0.74541
M204 S750
G0 F3600 X149.371 Y94.499
M204 S500
G1 F1200 X160.371 Y105.5 E0.74541
M204 S750
G0 F3600 X159.806 Y105.5
M204 S500
G1 F1200 X148.805 Y94.499 E0.74544
M204 S750
G0 F3600 X148.239 Y94.499
M204 S500
G1 F1200 X159.24 Y105.5 E0.74544
M204 S750
G0 F3600 X158.674 Y105.5
M204 S500
G1 F1200 X147.674 Y94.499 E0.74541
M204 S750
G0 F3600 X147.108 Y94.499
M204 S500
G1 F1200 X158.109 Y105.5 E0.74544
M204 S750
G0 F3600 X157.543 Y105.5
M204 S500
G1 F1200 X146.542 Y94.499 E0.74544
M204 S750
G0 F3600 X145.977 Y94.499
M204 S500
G1 F1200 X156.977 Y105.5 E0.74541
M204 S750
G0 F3600 X156.412 Y105.5
M204 S500
G1 F1200 X145.411 Y94.499 E0.74544
M204 S750
G0 F3600 X144.845 Y94.499
M204 S500
G1 F1200 X155.846 Y105.5 E0.74544
M204 S750
G0 F3600 X155.28 Y105.5
M204 S500
G1 F1200 X144.28 Y94.499 E0.74541
M204 S750
G0 F3600 X143.714 Y94.499
M204 S500
G1 F1200 X154.714 Y105.5 E0.74541
M204 S750
G0 F3600 X154.149 Y105.5
M204 S500
G1 F1200 X143.148 Y94.499 E0.74544
M204 S750
G0 F3600 X142.583 Y94.499
M204 S500
G1 F1200 X153.583 Y105.5 E0.74541
M204 S750
G0 F3600 X153.017 Y105.5
M204 S500
G1 F1200 X142.017 Y94.499 E0.74541
M204 S750
G0 F3600 X141.451 Y94.499
M204 S500
G1 F1200 X152.452 Y105.5 E0.74544
M204 S750
G0 F3600 X151.886 Y105.5
M204 S500
G1 F1200 X140.886 Y94.499 E0.74541
M204 S750
G0 F3600 X140.32 Y94.499
M204 S500
G1 F1200 X151.32 Y105.5 E0.74541
M204 S750
G0 F3600 X150.755 Y105.5
M204 S500
G1 F1200 X139.754 Y94.499 E0.74544
M204 S750
G0 F3600 X139.189 Y94.499
M204 S500
G1 F1200 X150.189 Y105.5 E0.74541
M204 S750
G0 F3600 X149.623 Y105.5
M204 S500
G1 F1200 X138.623 Y94.499 E0.74541
M204 S750
G0 F3600 X138.057 Y94.499
M204 S500
G1 F1200 X149.058 Y105.5 E0.74544
M204 S750
G0 F3600 X148.492 Y105.5
M204 S500
G1 F1200 X137.491 Y94.499 E0.74544
M204 S750
G0 F3600 X136.926 Y94.499
M204 S500
G1 F1200 X147.926 Y105.5 E0.74541
M204 S750
G0 F3600 X147.361 Y105.5
M204 S500
G1 F1200 X136.36 Y94.499 E0.74544
M204 S750
G0 F3600 X135.794 Y94.499
M204 S500
G1 F1200 X146.795 Y105.5 E0.74544
M204 S750
G0 F3600 X146.229 Y105.5
M204 S500
G1 F1200 X135.229 Y94.499 E0.74541
M204 S750
G0 F3600 X134.663 Y94.499
M204 S500
G1 F1200 X145.663 Y105.5 E0.74541
M204 S750
G0 F3600 X145.098 Y105.5
M204 S500
G1 F1200 X134.097 Y94.499 E0.74544
M204 S750
G0 F3600 X133.532 Y94.499
M204 S500
G1 F1200 X144.532 Y105.5 E0.74541
M204 S750
G0 F3600 X143.966 Y105.5
M204 S500
G1 F1200 X132.966 Y94.499 E0.74541
M204 S750
G0 F3600 X132.4 Y94.499
M204 S500
G1 F1200 X143.401 Y105.5 E0.74544
M204 S750
G0 F3600 X142.835 Y105.5
M204 S500
G1 F1200 X131.835 Y94.499 E0.74541
M204 S750
G0 F3600 X131.269 Y94.499
M204 S500
G1 F1200 X142.269 Y105.5 E0.74541
M204 S750
G0 F3600 X141.704 Y105.5
M204 S500
G1 F1200 X130.703 Y94.499 E0.74544
M204 S750
G0 F3600 X130.138 Y94.499
M204 S500
G1 F1200 X141.138 Y105.5 E0.74541
M204 S750
G0 F3600 X140.572 Y105.5
M204 S500
G1 F1200 X129.572 Y94.499 E0.74541
M204 S750
G0 F3600 X129.006 Y94.499
M204 S500
G1 F1200 X140.007 Y105.5 E0.74544
M204 S750
G0 F3600 X139.441 Y105.5
M204 S500
G1 F1200 X128.44 Y94.499 E0.74544
M204 S750
G0 F3600 X127.875 Y94.499
M204 S500
G1 F1200 X138.875 Y105.5 E0.74541
M204 S750
G0 F3600 X138.31 Y105.5
M204 S500
G1 F1200 X127.309 Y94.499 E0.74544
M204 S750
G0 F3600 X126.743 Y94.499
M204 S500
G1 F1200 X137.744 Y105.5 E0.74544
M204 S750
G0 F3600 X137.178 Y105.5
M204 S500
G1 F1200 X126.178 Y94.499 E0.74541
M204 S750
G0 F3600 X125.612 Y94.499
M204 S500
G1 F1200 X136.613 Y105.5 E0.74544
M204 S750
G0 F3600 X136.047 Y105.5
M204 S500
G1 F1200 X125.046 Y94.499 E0.74544
M204 S750
G0 F3600 X124.998 Y95.017
M204 S500
G1 F1200 X135.481 Y105.5 E0.71034
M204 S750
G0 F3600 X134.915 Y105.5
M204 S500
G1 F1200 X124.998 Y95.583 E0.67199
M204 S750
G0 F3600 X124.998 Y96.148
M204 S500
G1 F1200 X134.35 Y105.5 E0.6337
M204 S750
G0 F3600 X133.784 Y105.5
M204 S500
G1 F1200 X124.998 Y96.714 E0.59535
M204 S750
G0 F3600 X124.998 Y97.28
M204 S500
G1 F1200 X133.218 Y105.5 E0.557
M204 S750
G0 F3600 X132.653 Y105.5
M204 S500
G1 F1200 X124.998 Y97.845 E0.51871
M204 S750
G0 F3600 X124.998 Y98.411
M204 S500
G1 F1200 X132.087 Y105.5 E0.48036
M204 S750
G0 F3600 X131.521 Y105.5
M204 S500
G1 F1200 X124.998 Y98.977 E0.44201
M204 S750
G0 F3600 X124.998 Y99.542
M204 S500
G1 F1200 X130.956 Y105.5 E0.40372
M204 S750
G0 F3600 X130.39 Y105.5
M204 S500
G1 F1200 X124.998 Y100.108 E0.36537
M204 S750
G0 F3600 X124.998 Y100.674
M204 S500
G1 F1200 X129.824 Y105.5 E0.32702
M204 S750
G0 F3600 X129.259 Y105.5
M204 S500
G1 F1200 X124.998 Y101.24 E0.2887
M204 S750
G0 F3600 X124.998 Y101.805
M204 S500
G1 F1200 X128.693 Y105.5 E0.25038
M204 S750
G0 F3600 X128.127 Y105.5
M204 S500
G1 F1200 X124.998 Y102.371 E0.21203
M204 S750
G0 F3600 X124.998 Y102.937
M204 S500
G1 F1200 X127.562 Y105.5 E0.17371
M204 S750
G0 F3600 X126.996 Y105.5
M204 S500
G1 F1200 X124.998 Y103.502 E0.13539
M204 S750
G0 F3600 X124.998 Y104.068
M204 S500
G1 F1200 X126.43 Y105.5 E0.09703
M204 S750
G0 F3600 X125.865 Y105.5
M204 S500
G1 F1200 X124.998 Y104.634 E0.05872
M204 S750
G0 F3600 X124.998 Y105.199
M104 S215
M204 S500
G1 F1200 X125.299 Y105.5 E0.0204
M204 S750
G1 F2400 E-3.5
;MESH:NONMESH
G0 F600 X125.299 Y105.5 Z0.5
G0 F3600 X175 Y105.5
;TIME_ELAPSED:116.394892
;LAYER:1
M106 S85
M204 S500
;TYPE:WALL-INNER
;MESH:190-230_PLA_Temp_calibration.stl
G1 F2400 E3.5
G1 F1260 X125 Y105.5 E1.62975
G1 X125 Y94.5 E0.35854
G1 X175 Y94.5 E1.62975
G1 X175 Y105.5 E0.35854
M204 S750
G0 F3720 X175.4 Y105.9
M204 S500
G1 F1260 X124.6 Y105.9 E1.65582
G1 X124.6 Y94.1 E0.38462
G1 X175.4 Y94.1 E1.65582
G1 X175.4 Y105.9 E0.38462
M204 S750
G1 F2400 E-3.5
G0 F3720 X175.8 Y106.3
M204 S500
;TYPE:WALL-OUTER
G1 F2400 E3.5
G1 F1200 X124.2 Y106.3 E1.6819
G1 X124.2 Y93.7 E0.4107
G1 X175.8 Y93.7 E1.6819
G1 X175.8 Y106.3 E0.4107
M204 S750
G0 F3720 X175.33 Y105.83
G0 X174.999 Y105.015
M204 S500
;TYPE:SKIN
G1 F1260 X174.513 Y105.5 E0.02238
M204 S750
G0 F3720 X173.948 Y105.5
M204 S500
G1 F1260 X174.999 Y104.449 E0.04845
M204 S750
G0 F3720 X174.999 Y103.883
M204 S500
G1 F1260 X173.382 Y105.5 E0.07454
M204 S750
G0 F3720 X172.816 Y105.5
M204 S500
G1 F1260 X174.999 Y103.318 E0.1006
M204 S750
G0 F3720 X174.999 Y102.752
M204 S500
G1 F1260 X172.251 Y105.5 E0.12667
M204 S750
G0 F3720 X171.685 Y105.5
M204 S500
G1 F1260 X174.999 Y102.186 E0.15276
M204 S750
G0 F3720 X174.999 Y101.621
M204 S500
G1 F1260 X171.119 Y105.5 E0.17883
M204 S750
G0 F3720 X170.554 Y105.5
M204 S500
G1 F1260 X174.999 Y101.055 E0.2049
M204 S750
G0 F3720 X174.999 Y100.489
M204 S500
G1 F1260 X169.988 Y105.5 E0.23099
M204 S750
G0 F3720 X169.422 Y105.5
M204 S500
G1 F1260 X174.999 Y99.924 E0.25706
M204 S750
G0 F3720 X174.999 Y99.358
M204 S500
G1 F1260 X168.857 Y105.5 E0.28312
M204 S750
G0 F3720 X168.291 Y105.5
M204 S500
G1 F1260 X174.999 Y98.792 E0.30921
M204 S750
G0 F3720 X174.999 Y98.227
M204 S500
G1 F1260 X167.725 Y105.5 E0.33528
M204 S750
G0 F3720 X167.16 Y105.5
M204 S500
G1 F1260 X174.999 Y97.661 E0.36135
M204 S750
G0 F3720 X174.999 Y97.095
M204 S500
G1 F1260 X166.594 Y105.5 E0.38744
M204 S750
G0 F3720 X166.028 Y105.5
M204 S500
G1 F1260 X174.999 Y96.529 E0.41353
M204 S750
G0 F3720 X174.999 Y95.964
M204 S500
G1 F1260 X165.462 Y105.5 E0.4396
M204 S750
G0 F3720 X164.897 Y105.5
M204 S500
G1 F1260 X174.999 Y95.398 E0.46566
M204 S750
G0 F3720 X174.999 Y94.832
M204 S500
G1 F1260 X164.331 Y105.5 E0.49175
M204 S750
G0 F3720 X163.765 Y105.5
M204 S500
G1 F1260 X174.766 Y94.499 E0.5071
M204 S750
G0 F3720 X174.2 Y94.499
M204 S500
G1 F1260 X163.2 Y105.5 E0.50708
M204 S750
G0 F3720 X162.634 Y105.5
M204 S500
G1 F1260 X173.635 Y94.499 E0.5071
M204 S750
G0 F3720 X173.069 Y94.499
M204 S500
G1 F1260 X162.068 Y105.5 E0.5071
M204 S750
G0 F3720 X161.503 Y105.5
M204 S500
G1 F1260 X172.503 Y94.499 E0.50708
M204 S750
G0 F3720 X171.937 Y94.499
M204 S500
G1 F1260 X160.937 Y105.5 E0.50708
M204 S750
G0 F3720 X160.371 Y105.5
M204 S500
G1 F1260 X171.372 Y94.499 E0.5071
M204 S750
