;FLAVOR:Marlin
;TIME:234
;Filament used: 0.0733059m, 0.0736297m
;Layer height: 0.2
;POSTPROCESSED
;Generated with Cura_SteamEngine 3.5.1
T0
M82 ;absolute extrusion mode
G28
M104 S0 T0
M104 S0 T1
M104 S160
M140 S60
M906 X700 Y700 Z700 E1100 ; Stepper driver current
M916 E1 Z0 ; Stepper driver mode
M203 X200 Y200 Z6 E60 ; MAX feedrate
M201 X3000 Y3000 E10000 Z200 ; MAX acceleration
M205 X8 Y8 Z0.4 E2.5 ; Jerk settings
M204 P500 T750 ; def accel
M117 Heating Bed...
M190 S60
M117 Stabilizing Bed Temp
G4 S60
M117 Calibrating...
G29
M420 S1
M900 K0 ; K-Factor PLA
G1 X296 Z1 F1200
G92 E0
M117 Heating Extruder...
M109 S200
M117 Prime line...
G1 Z0.4 F1200 ; move to layer height
G1 Y50 E20 F360 ; prime nozzle
G92 E0
M201 Z50
M117 Printing...
M83 ;relative extrusion mode
G1 F2400 E-4.5
;LAYER_COUNT:3
M117 Printing Layer_0
M107
M104 T1 S200
G0 F3600 X138.468 Y15.769 Z0.2
;TYPE:SKIRT
G1 F3600 E4.5
G1 F1200 X138.587 Y15.303 E0.02328
G1 X138.781 Y14.863 E0.02327
G1 X139.045 Y14.461 E0.02327
G1 X139.372 Y14.108 E0.02329
G1 X139.753 Y13.814 E0.02329
G1 X140.178 Y13.587 E0.02332
G1 X140.496 Y13.471 E0.01638
G1 X144.794 Y12.184 E0.21712
G1 X149.998 Y10.34 E0.26718
G1 X154.334 Y8.569 E0.22666
G1 X154.793 Y8.425 E0.02328
G1 X155.455 Y8.354 E0.03222
G1 X155.822 Y8.357 E0.01776
G1 X156.301 Y8.401 E0.02328
G1 X156.766 Y8.523 E0.02326
G1 X157.231 Y8.736 E0.02475
G1 X157.458 Y8.865 E0.01264
G1 X157.855 Y9.136 E0.02326
G1 X158.202 Y9.47 E0.02331
G1 X158.489 Y9.856 E0.02328
G1 X158.681 Y10.221 E0.01996
G1 X160.629 Y14.662 E0.23468
G1 X160.785 Y15.117 E0.02328
G1 X160.873 Y15.831 E0.03481
G1 X160.863 Y23.098 E0.35168
G1 X160.821 Y23.588 E0.0238
G1 X160.357 Y26.276 E0.13201
G1 X159.645 Y31.75 E0.26714
G1 X159.249 Y37.203 E0.26458
G1 X159.159 Y42.709 E0.26649
G1 X159.383 Y48.226 E0.26721
G1 X159.607 Y50.924 E0.13101
G1 X160.151 Y55.44 E0.22012
G1 X160.172 Y55.785 E0.01673
G1 X160.176 Y62.809 E0.33992
G1 X160.156 Y63.15 E0.01653
G1 X159.6 Y67.877 E0.23033
G1 X159.232 Y73.381 E0.26695
G1 X159.176 Y78.868 E0.26555
G1 X159.431 Y84.349 E0.26553
G1 X159.997 Y89.829 E0.26661
G1 X160.828 Y95.07 E0.2568
G1 X160.864 Y95.528 E0.02223
G1 X160.861 Y97.667 E0.10351
G1 X160.816 Y98.171 E0.02449
G1 X160.102 Y102.182 E0.19716
G1 X159.389 Y107.659 E0.26729
G1 X158.991 Y113.115 E0.26474
G1 X158.901 Y118.618 E0.26635
G1 X159.123 Y124.12 E0.26648
G1 X159.654 Y129.577 E0.26533
G1 X160.056 Y132.491 E0.14235
G1 X160.083 Y132.886 E0.01916
G1 X160.088 Y139.682 E0.32888
G1 X160.074 Y139.969 E0.01391
G1 X159.394 Y146.867 E0.33544
G1 X159.194 Y152.35 E0.26552
G1 X159.304 Y157.835 E0.26549
G1 X159.725 Y163.307 E0.26559
G1 X160.457 Y168.76 E0.26626
G1 X160.69 Y170.037 E0.06282
G1 X160.711 Y170.17 E0.00652
G1 X160.955 Y171.977 E0.08824
G1 X160.981 Y172.37 E0.01906
G1 X160.969 Y179.139 E0.32758
G1 X160.928 Y179.619 E0.02331
G1 X160.863 Y179.912 E0.01452
G1 X160.777 Y180.221 E0.01552
G1 X160.61 Y180.672 E0.02327
G1 X160.37 Y181.089 E0.02328
G1 X160.065 Y181.462 E0.02332
G1 X159.829 Y181.679 E0.01552
G1 X159.491 Y181.958 E0.02121
G1 X159.096 Y182.233 E0.02329
G1 X158.661 Y182.438 E0.02327
G1 X158.197 Y182.569 E0.02333
G1 X157.659 Y182.622 E0.02616
G1 X153.577 Y182.642 E0.19754
G1 X153.097 Y182.604 E0.0233
G1 X152.725 Y182.518 E0.01848
G1 X150.869 Y181.958 E0.09382
G1 X145.495 Y180.552 E0.26882
G1 X140.741 Y179.571 E0.23491
G1 X140.279 Y179.435 E0.02331
G1 X139.846 Y179.224 E0.02331
G1 X139.454 Y178.945 E0.02328
G1 X139.114 Y178.605 E0.02327
G1 X138.834 Y178.213 E0.02331
G1 X138.624 Y177.781 E0.02325
G1 X138.487 Y177.319 E0.02332
G1 X138.427 Y176.731 E0.0286
G1 X138.428 Y16.249 E7.76629
G1 X138.468 Y15.769 E0.02331
G1 F2400 E-4.5
G0 F3600 X139.068 Y15.822
G1 F3600 E4.5
G1 F1200 X139.186 Y15.411 E0.02069
G1 X139.379 Y15.028 E0.02075
G1 X139.639 Y14.688 E0.02071
G1 X139.958 Y14.401 E0.02077
G1 X140.325 Y14.179 E0.02076
G1 X140.668 Y14.046 E0.0178
G1 X144.982 Y12.754 E0.21793
G1 X150.217 Y10.899 E0.26877
G1 X154.561 Y9.125 E0.22708
G1 X154.971 Y9 E0.02074
G1 X155.45 Y8.954 E0.02329
G1 X155.817 Y8.957 E0.01776
G1 X156.243 Y9 E0.02072
G1 X156.654 Y9.122 E0.02075
G1 X156.934 Y9.257 E0.01504
G1 X157.161 Y9.386 E0.01264
G1 X157.513 Y9.632 E0.02078
G1 X157.812 Y9.938 E0.0207
G1 X158.131 Y10.462 E0.02969
G1 X160.079 Y14.903 E0.23468
G1 X160.214 Y15.31 E0.02075
G1 X160.273 Y15.83 E0.02533
G1 X160.263 Y23.097 E0.35168
G1 X160.229 Y23.486 E0.0189
G1 X159.765 Y26.171 E0.13186
G1 X159.049 Y31.68 E0.26884
G1 X158.649 Y37.186 E0.26716
G1 X158.559 Y42.723 E0.26799
G1 X158.783 Y48.254 E0.26788
G1 X159.01 Y50.991 E0.13291
G1 X159.555 Y55.512 E0.22037
G1 X159.572 Y55.786 E0.01329
G1 X159.576 Y62.81 E0.33992
G1 X159.56 Y63.08 E0.01309
G1 X159.002 Y67.826 E0.23126
G1 X158.632 Y73.353 E0.26807
G1 X158.576 Y78.872 E0.2671
G1 X158.833 Y84.403 E0.26795
G1 X159.4 Y89.893 E0.26709
G1 X160.236 Y95.164 E0.25827
G1 X160.264 Y95.527 E0.01762
G1 X160.261 Y97.666 E0.10351
G1 X160.225 Y98.066 E0.01944
G1 X159.51 Y102.084 E0.1975
G1 X158.793 Y107.591 E0.26875
G1 X158.391 Y113.098 E0.26721
G1 X158.301 Y118.633 E0.26789
G1 X158.523 Y124.15 E0.2672
G1 X159.06 Y129.667 E0.26825
G1 X159.461 Y132.573 E0.14196
G1 X159.483 Y132.886 E0.01518
G1 X159.488 Y139.682 E0.32888
G1 X159.477 Y139.91 E0.01105
G1 X158.794 Y146.835 E0.33675
G1 X158.594 Y152.32 E0.26561
G1 X158.706 Y157.877 E0.26898
G1 X159.128 Y163.361 E0.26617
G1 X159.866 Y168.863 E0.26865
G1 X160.1 Y170.145 E0.06307
G1 X160.116 Y170.25 E0.00514
G1 X160.36 Y172.057 E0.08824
G1 X160.381 Y172.369 E0.01513
G1 X160.369 Y179.138 E0.32758
G1 X160.285 Y179.751 E0.02994
G1 X160.199 Y180.06 E0.01552
G1 X160.046 Y180.46 E0.02073
G1 X159.822 Y180.825 E0.02072
G1 X159.447 Y181.217 E0.02625
G1 X159.109 Y181.496 E0.02121
G1 X158.755 Y181.737 E0.02072
G1 X158.362 Y181.907 E0.02072
G1 X157.944 Y182.002 E0.02074
G1 X157.656 Y182.022 E0.01397
G1 X153.574 Y182.042 E0.19754
G1 X153.147 Y182.004 E0.02075
G1 X152.899 Y181.944 E0.01235
G1 X151.012 Y181.375 E0.09538
G1 X145.636 Y179.969 E0.26891
G1 X140.862 Y178.983 E0.23591
G1 X140.452 Y178.858 E0.02074
G1 X140.073 Y178.659 E0.02072
G1 X139.737 Y178.393 E0.02074
G1 X139.456 Y178.069 E0.02075
G1 X139.241 Y177.699 E0.02071
G1 X139.097 Y177.295 E0.02076
G1 X139.027 Y176.731 E0.0275
G1 X139.028 Y16.249 E7.76629
G1 X139.068 Y15.822 E0.02075
G1 F2400 E-4.5
G0 F3600 X141.532 Y16.455
G0 X142.048 Y16.541
G0 X142.118 Y16.541
;TYPE:WALL-OUTER
G1 F3600 E4.5
G1 F1200 X142.118 Y20.441 E0.12582
G1 X145.118 Y20.441 E0.09679
G1 X145.118 Y20.541 E0.00323
G1 X142.118 Y20.541 E0.09679
G1 X142.118 Y24.441 E0.12582
G1 X145.118 Y24.441 E0.09679
G1 X145.118 Y24.541 E0.00323
G1 X142.118 Y24.541 E0.09679
G1 X142.118 Y28.441 E0.12582
G1 X145.118 Y28.441 E0.09679
G1 X145.118 Y28.541 E0.00323
G1 X142.118 Y28.541 E0.09679
G1 X142.118 Y32.441 E0.12582
G1 X145.118 Y32.441 E0.09679
G1 X145.118 Y32.541 E0.00323
G1 X142.118 Y32.541 E0.09679
G1 X142.118 Y36.441 E0.12582
G1 X145.118 Y36.441 E0.09679
G1 X145.118 Y36.541 E0.00323
G1 X142.118 Y36.541 E0.09679
G1 X142.118 Y40.441 E0.12582
G1 X145.118 Y40.441 E0.09679
G1 X145.118 Y40.541 E0.00323
G1 X142.118 Y40.541 E0.09679
G1 X142.118 Y44.441 E0.12582
G1 X145.118 Y44.441 E0.09679
G1 X145.118 Y44.541 E0.00323
G1 X142.118 Y44.541 E0.09679
G1 X142.118 Y48.441 E0.12582
G1 X145.118 Y48.441 E0.09679
G1 X145.118 Y48.541 E0.00323
G1 X142.118 Y48.541 E0.09679
G1 X142.118 Y52.441 E0.12582
G1 X145.118 Y52.441 E0.09679
G1 X145.118 Y52.541 E0.00323
G1 X142.118 Y52.541 E0.09679
G1 X142.118 Y56.441 E0.12582
G1 X145.118 Y56.441 E0.09679
G1 X145.118 Y56.541 E0.00323
G1 X142.118 Y56.541 E0.09679
G1 X142.118 Y60.441 E0.12582
G1 X145.118 Y60.441 E0.09679
G1 X145.118 Y60.541 E0.00323
G1 X142.118 Y60.541 E0.09679
G1 X142.118 Y64.441 E0.12582
G1 X145.118 Y64.441 E0.09679
G1 X145.118 Y64.541 E0.00323
G1 X142.118 Y64.541 E0.09679
G1 X142.118 Y68.441 E0.12582
G1 X145.118 Y68.441 E0.09679
G1 X145.118 Y68.541 E0.00323
G1 X142.118 Y68.541 E0.09679
G1 X142.118 Y72.441 E0.12582
G1 X145.118 Y72.441 E0.09679
G1 X145.118 Y72.541 E0.00323
G1 X142.118 Y72.541 E0.09679
G1 X142.118 Y76.441 E0.12582
G1 X145.118 Y76.441 E0.09679
G1 X145.118 Y76.541 E0.00323
G1 X142.118 Y76.541 E0.09679
G1 X142.118 Y80.441 E0.12582
G1 X145.118 Y80.441 E0.09679
G1 X145.118 Y80.541 E0.00323
G1 X142.118 Y80.541 E0.09679
G1 X142.118 Y84.441 E0.12582
G1 X145.118 Y84.441 E0.09679
G1 X145.118 Y84.541 E0.00323
G1 X142.118 Y84.541 E0.09679
G1 X142.118 Y88.441 E0.12582
G1 X145.118 Y88.441 E0.09679
G1 X145.118 Y88.521 E0.00258
G1 X145.193 Y88.521 E0.00242
G1 X145.193 Y88.541 E0.00065
G1 X142.118 Y88.541 E0.09921
G1 X142.118 Y92.441 E0.12582
G1 X145.118 Y92.441 E0.09679
G1 X145.118 Y92.471 E0.00097
G1 X145.193 Y92.471 E0.00242
G1 X145.193 Y92.541 E0.00226
G1 X142.118 Y92.541 E0.09921
G1 X142.118 Y96.441 E0.12582
G1 X145.193 Y96.441 E0.09921
G1 X145.193 Y96.541 E0.00323
G1 X142.118 Y96.541 E0.09921
G1 X142.118 Y100.441 E0.12582
G1 X145.193 Y100.441 E0.09921
G1 X145.193 Y100.511 E0.00226
G1 X145.118 Y100.511 E0.00242
G1 X145.118 Y100.541 E0.00097
G1 X142.118 Y100.541 E0.09679
G1 X142.118 Y104.441 E0.12582
G1 X145.193 Y104.441 E0.09921
G1 X145.193 Y104.461 E0.00065
G1 X145.118 Y104.461 E0.00242
G1 X145.118 Y104.541 E0.00258
G1 X142.118 Y104.541 E0.09679
G1 X142.118 Y108.441 E0.12582
G1 X145.118 Y108.441 E0.09679
G1 X145.118 Y108.541 E0.00323
G1 X142.118 Y108.541 E0.09679
G1 X142.118 Y112.441 E0.12582
G1 X145.118 Y112.441 E0.09679
G1 X145.118 Y112.541 E0.00323
G1 X142.118 Y112.541 E0.09679
G1 X142.118 Y116.441 E0.12582
G1 X145.118 Y116.441 E0.09679
G1 X145.118 Y116.541 E0.00323
G1 X142.118 Y116.541 E0.09679
G1 X142.118 Y120.441 E0.12582
G1 X145.118 Y120.441 E0.09679
G1 X145.118 Y120.541 E0.00323
G1 X142.118 Y120.541 E0.09679
G1 X142.118 Y124.441 E0.12582
G1 X145.118 Y124.441 E0.09679
G1 X145.118 Y124.541 E0.00323
G1 X142.118 Y124.541 E0.09679
G1 X142.118 Y128.441 E0.12582
G1 X145.118 Y128.441 E0.09679
G1 X145.118 Y128.541 E0.00323
G1 X142.118 Y128.541 E0.09679
G1 X142.118 Y132.441 E0.12582
G1 X145.118 Y132.441 E0.09679
G1 X145.118 Y132.541 E0.00323
G1 X142.118 Y132.541 E0.09679
G1 X142.118 Y136.441 E0.12582
G1 X145.118 Y136.441 E0.09679
G1 X145.118 Y136.541 E0.00323
G1 X142.118 Y136.541 E0.09679
G1 X142.118 Y140.441 E0.12582
G1 X145.118 Y140.441 E0.09679
G1 X145.118 Y140.541 E0.00323
G1 X142.118 Y140.541 E0.09679
G1 X142.118 Y144.441 E0.12582
G1 X145.118 Y144.441 E0.09679
G1 X145.118 Y144.541 E0.00323
G1 X142.118 Y144.541 E0.09679
G1 X142.118 Y148.441 E0.12582
G1 X145.118 Y148.441 E0.09679
G1 X145.118 Y148.541 E0.00323
G1 X142.118 Y148.541 E0.09679
G1 X142.118 Y152.441 E0.12582
G1 X145.118 Y152.441 E0.09679
G1 X145.118 Y152.541 E0.00323
G1 X142.118 Y152.541 E0.09679
G1 X142.118 Y156.441 E0.12582
G1 X145.118 Y156.441 E0.09679
G1 X145.118 Y156.541 E0.00323
G1 X142.118 Y156.541 E0.09679
G1 X142.118 Y160.441 E0.12582
G1 X145.118 Y160.441 E0.09679
G1 X145.118 Y160.541 E0.00323
G1 X142.118 Y160.541 E0.09679
G1 X142.118 Y164.441 E0.12582
G1 X145.118 Y164.441 E0.09679
G1 X145.118 Y164.541 E0.00323
G1 X142.118 Y164.541 E0.09679
G1 X142.118 Y168.441 E0.12582
G1 X145.118 Y168.441 E0.09679
G1 X145.118 Y168.541 E0.00323
G1 X142.118 Y168.541 E0.09679
G1 X142.118 Y172.441 E0.12582
G1 X145.118 Y172.441 E0.09679
G1 X145.118 Y172.541 E0.00323
G1 X142.118 Y172.541 E0.09679
G1 X142.118 Y176.441 E0.12582
G1 X145.118 Y176.441 E0.09679
G1 X145.118 Y176.541 E0.00323
G1 X141.518 Y176.541 E0.11614
G1 X141.518 Y16.441 E5.1652
G1 X145.118 Y16.441 E0.11614
G1 X145.118 Y16.541 E0.00323
G1 X142.118 Y16.541 E0.09679
G0 F3600 X141.836 Y16.841
M104 S200
G1 F1200 E-8
M82 ;absolute extrusion mode
M104 S200 ; standby temperature
G0 F3600 X258.5 Y152 ; move extruder
M83 ;relative extrusion mode
T1
M82 ;absolute extrusion mode
M109 S200
;G92 E0
;G1 F300 E5
;G92 E0
M83 ;relative extrusion mode
M105
M109 S200
G1 F2400 E-4.5
G0 F3600 X0.00 Y0.00 Z0.2
G0 F6000 X0.00 Y0.00 Z0.00
G0 F3600 X0.00 Y10 Z0.2
G0 X137.868 Y15.722
;TYPE:SKIRT
G1 F3600 E4.5
G1 F1200 X137.987 Y15.206 E0.02563
G1 X138.182 Y14.715 E0.02557
G1 X138.449 Y14.259 E0.02557
G1 X138.782 Y13.848 E0.0256
G1 X139.173 Y13.491 E0.02562
G1 X139.613 Y13.198 E0.02558
G1 X140.324 Y12.896 E0.03738
G1 X144.617 Y11.61 E0.21687
G1 X149.793 Y9.777 E0.26573
G1 X154.108 Y8.014 E0.22557
G1 X154.611 Y7.851 E0.02559
G1 X155.133 Y7.767 E0.02559
G1 X155.46 Y7.754 E0.01584
G1 X155.827 Y7.757 E0.01776
G1 X156.354 Y7.801 E0.02559
G1 X156.868 Y7.924 E0.02558
G1 X157.527 Y8.214 E0.03484
G1 X157.754 Y8.343 E0.01264
G1 X158.193 Y8.638 E0.0256
G1 X158.582 Y8.996 E0.02558
G1 X158.913 Y9.409 E0.02561
G1 X159.23 Y9.98 E0.03161
G1 X161.178 Y14.421 E0.23468
G1 X161.353 Y14.92 E0.02559
G1 X161.451 Y15.44 E0.02561
G1 X161.473 Y15.832 E0.019
G1 X161.463 Y23.099 E0.35168
G1 X161.412 Y23.69 E0.02871
G1 X160.951 Y26.36 E0.13112
G1 X160.244 Y31.799 E0.26543
G1 X159.848 Y37.239 E0.26396
G1 X159.759 Y42.712 E0.26489
G1 X159.981 Y48.176 E0.26464
G1 X160.203 Y50.856 E0.13014
G1 X160.747 Y55.368 E0.21993
G1 X160.772 Y55.785 E0.02022
G1 X160.776 Y62.809 E0.33992
G1 X160.752 Y63.22 E0.01992
G1 X160.196 Y67.947 E0.23033
G1 X159.832 Y73.392 E0.26409
G1 X159.776 Y78.863 E0.26477
G1 X160.03 Y84.312 E0.26398
G1 X160.589 Y89.73 E0.26359
G1 X161.421 Y94.976 E0.25705
G1 X161.464 Y95.529 E0.02684
G1 X161.461 Y97.668 E0.10351
G1 X161.407 Y98.276 E0.02954
G1 X160.695 Y102.276 E0.19662
G1 X159.988 Y107.711 E0.26523
G1 X159.59 Y113.151 E0.26396
G1 X159.501 Y118.622 E0.2648
G1 X159.721 Y124.054 E0.26309
G1 X160.253 Y129.538 E0.26664
G1 X160.65 Y132.409 E0.14026
G1 X160.683 Y132.885 E0.02309
G1 X160.688 Y139.681 E0.32888
G1 X160.671 Y140.028 E0.01681
G1 X159.993 Y146.899 E0.33413
G1 X159.794 Y152.359 E0.2644
G1 X159.904 Y157.795 E0.26312
G1 X160.324 Y163.253 E0.26491
G1 X161.052 Y168.679 E0.26494
G1 X161.28 Y169.93 E0.06154
G1 X161.306 Y170.09 E0.00784
G1 X161.55 Y171.897 E0.08824
G1 X161.581 Y172.371 E0.02299
G1 X161.569 Y179.14 E0.32758
G1 X161.528 Y179.667 E0.02558
G1 X161.441 Y180.072 E0.02005
G1 X161.355 Y180.381 E0.01552
G1 X161.175 Y180.879 E0.02563
G1 X160.922 Y181.343 E0.02558
G1 X160.602 Y181.764 E0.02559
G1 X160.211 Y182.142 E0.02632
G1 X159.873 Y182.421 E0.02121
G1 X159.441 Y182.726 E0.02559
G1 X158.968 Y182.962 E0.02558
G1 X158.465 Y183.125 E0.02559
G1 X157.943 Y183.209 E0.02559
G1 X157.662 Y183.222 E0.01361
G1 X153.58 Y183.242 E0.19754
G1 X153.053 Y183.205 E0.02557
G1 X152.552 Y183.093 E0.02484
G1 X150.683 Y182.529 E0.09448
G1 X145.375 Y181.141 E0.26551
G1 X140.619 Y180.159 E0.23501
G1 X140.111 Y180.013 E0.02558
G1 X139.631 Y179.792 E0.02557
G1 X139.189 Y179.502 E0.02558
G1 X138.796 Y179.148 E0.0256
G1 X138.46 Y178.739 E0.02562
G1 X138.191 Y178.284 E0.02558
G1 X137.992 Y177.794 E0.02559
G1 X137.87 Y177.28 E0.02557
G1 X137.827 Y176.731 E0.02665
G1 X137.828 Y16.249 E7.76629
G1 X137.868 Y15.722 E0.02558
G1 F2400 E-4.5
G0 F3600 X152.905 Y137.335
G0 X156.707 Y137.612
G0 X156.637 Y137.682
;TYPE:WALL-OUTER
G1 F3600 E4.5
G1 F1200 X152.768 Y137.682 E0.12482
G1 X152.768 Y139.787 E0.06791
G1 X156.637 Y139.787 E0.12482
G1 X156.637 Y137.682 E0.06791
G0 F3600 X156.534 Y137.317
G1 F1200 X156.671 Y137.338 E0.00447
G1 X156.792 Y137.395 E0.00432
G1 X156.891 Y137.485 E0.00432
G1 X156.96 Y137.595 E0.00419
G1 X156.992 Y137.711 E0.00388
G1 X156.999 Y139.653 E0.06265
G1 X156.983 Y139.801 E0.0048
G1 X156.936 Y139.915 E0.00398
G1 X156.854 Y140.016 E0.0042
G1 X156.742 Y140.094 E0.0044
G1 X156.629 Y140.134 E0.00387
G1 X156.467 Y140.145 E0.00524
G1 X152.876 Y140.145 E0.11585
G1 X152.734 Y140.126 E0.00462
G1 X152.617 Y140.072 E0.00416
G1 X152.509 Y139.976 E0.00466
