;FLAVOR:Marlin
;TIME:234
;Filament used: 0.0732989m, 0.0736262m
;Layer height: 0.2
;POSTPROCESSED
;Generated with Cura_SteamEngine 3.5.1
T0
M82 ;absolute extrusion mode
G28
M104 S0 T0
M104 S0 T1
M104 S160
M140 S60
M906 X700 Y700 Z700 E1100 ; Stepper driver current
M916 E1 Z0 ; Stepper driver mode
M203 X200 Y200 Z6 E60 ; MAX feedrate
M201 X3000 Y3000 E10000 Z200 ; MAX acceleration
M205 X8 Y8 Z0.4 E2.5 ; Jerk settings
M204 P500 T750 ; def accel
M117 Heating Bed...
M190 S60
M117 Stabilizing Bed Temp
G4 S60
M117 Calibrating...
G29
M420 S1
M900 K0 ; K-Factor PLA
G1 X296 Z1 F1200
G92 E0
M117 Heating Extruder...
M109 S200
M117 Prime line...
G1 Z0.4 F1200 ; move to layer height
G1 Y50 E20 F360 ; prime nozzle
G92 E0
M201 Z50
M117 Printing...
M83 ;relative extrusion mode
G1 F2400 E-4.5
;LAYER_COUNT:3
M117 Printing Layer_0
M107
M104 T1 S200
G0 F3600 X61.043 Y85.254 Z0.2
;TYPE:SKIRT
G1 F3600 E4.5
G1 F1200 X61.436 Y84.977 E0.02327
G1 X61.743 Y84.82 E0.01669
G1 X66.172 Y82.88 E0.23399
G1 X66.628 Y82.724 E0.02332
G1 X67.34 Y82.636 E0.03472
G1 X74.606 Y82.646 E0.35163
G1 X75.055 Y82.682 E0.0218
G1 X80.519 Y83.547 E0.26771
G1 X85.982 Y84.101 E0.26573
G1 X91.465 Y84.344 E0.2656
G1 X96.969 Y84.277 E0.26638
G1 X102.45 Y83.9 E0.26587
G1 X106.951 Y83.358 E0.21939
G1 X107.297 Y83.337 E0.01677
G1 X114.305 Y83.335 E0.33914
G1 X114.643 Y83.355 E0.01639
G1 X119.38 Y83.909 E0.2308
G1 X124.89 Y84.277 E0.26724
G1 X130.376 Y84.333 E0.2655
G1 X135.858 Y84.078 E0.26558
G1 X141.338 Y83.512 E0.26661
G1 X146.56 Y82.684 E0.25587
G1 X147.013 Y82.648 E0.02199
G1 X149.157 Y82.647 E0.10376
G1 X149.628 Y82.685 E0.02287
G1 X156.447 Y83.805 E0.33442
G1 X161.894 Y84.358 E0.26495
G1 X167.375 Y84.602 E0.26551
G1 X172.88 Y84.536 E0.26643
G1 X178.342 Y84.16 E0.26495
G1 X184.039 Y83.448 E0.27784
G1 X184.397 Y83.426 E0.01736
G1 X191.191 Y83.421 E0.32879
G1 X191.478 Y83.435 E0.01391
G1 X198.376 Y84.115 E0.33544
G1 X203.859 Y84.315 E0.26552
G1 X209.344 Y84.205 E0.26549
G1 X214.816 Y83.784 E0.26559
G1 X220.269 Y83.052 E0.26626
G1 X221.546 Y82.819 E0.06282
G1 X221.679 Y82.798 E0.00652
G1 X223.486 Y82.554 E0.08824
G1 X223.879 Y82.528 E0.01906
G1 X230.648 Y82.54 E0.32758
G1 X231.128 Y82.581 E0.02331
G1 X231.594 Y82.7 E0.02328
G1 X231.852 Y82.804 E0.01346
G1 X232.312 Y83.015 E0.02449
G1 X232.731 Y83.251 E0.02327
G1 X233.106 Y83.554 E0.02333
G1 X233.425 Y83.914 E0.02328
G1 X233.586 Y84.152 E0.01391
G1 X233.714 Y84.364 E0.01198
G1 X233.927 Y84.795 E0.02327
G1 X234.067 Y85.256 E0.02332
G1 X234.131 Y85.849 E0.02886
G1 X234.151 Y89.932 E0.19759
G1 X234.113 Y90.412 E0.0233
G1 X234.027 Y90.784 E0.01848
G1 X233.467 Y92.64 E0.09382
G1 X232.061 Y98.014 E0.26882
G1 X231.08 Y102.768 E0.23491
G1 X230.944 Y103.23 E0.02331
G1 X230.733 Y103.663 E0.02331
G1 X230.454 Y104.055 E0.02328
G1 X230.114 Y104.395 E0.02327
G1 X229.722 Y104.675 E0.02331
G1 X229.29 Y104.885 E0.02325
G1 X228.828 Y105.022 E0.02332
G1 X228.239 Y105.082 E0.02865
G1 X67.795 Y105.041 E7.76445
G1 X67.316 Y105.001 E0.02326
G1 X66.849 Y104.882 E0.02332
G1 X66.409 Y104.688 E0.02327
G1 X66.007 Y104.423 E0.0233
G1 X65.654 Y104.096 E0.02329
G1 X65.36 Y103.715 E0.02329
G1 X65.134 Y103.29 E0.02329
G1 X65.027 Y103.002 E0.01487
G1 X63.7 Y98.734 E0.2163
G1 X61.849 Y93.51 E0.26821
G1 X60.078 Y89.175 E0.22662
G1 X59.934 Y88.716 E0.02328
G1 X59.863 Y88.054 E0.03222
G1 X59.866 Y87.687 E0.01776
G1 X59.91 Y87.208 E0.02328
G1 X60.032 Y86.743 E0.02326
G1 X60.279 Y86.219 E0.02803
G1 X60.42 Y85.984 E0.01326
G1 X60.701 Y85.593 E0.0233
G1 X61.043 Y85.254 E0.0233
G1 F2400 E-4.5
G0 F3600 X61.502 Y85.655
G1 F3600 E4.5
G1 F1200 X61.984 Y85.369 E0.02712
G1 X66.413 Y83.429 E0.23399
G1 X66.82 Y83.295 E0.02074
G1 X67.339 Y83.236 E0.02528
G1 X74.605 Y83.246 E0.35163
G1 X74.962 Y83.274 E0.01733
G1 X80.455 Y84.144 E0.26914
G1 X85.932 Y84.698 E0.2664
G1 X91.463 Y84.944 E0.26793
G1 X96.982 Y84.877 E0.2671
G1 X102.525 Y84.496 E0.26888
G1 X107.023 Y83.954 E0.21925
G1 X107.297 Y83.937 E0.01329
G1 X114.305 Y83.935 E0.33914
G1 X114.573 Y83.951 E0.01299
G1 X119.329 Y84.507 E0.23173
G1 X124.862 Y84.877 E0.26836
G1 X130.38 Y84.933 E0.26705
G1 X135.912 Y84.676 E0.268
G1 X141.402 Y84.109 E0.26709
G1 X146.654 Y83.276 E0.25734
G1 X147.013 Y83.248 E0.01743
G1 X149.157 Y83.247 E0.10376
G1 X149.531 Y83.277 E0.01816
G1 X156.371 Y84.4 E0.33544
G1 X161.841 Y84.956 E0.26608
G1 X167.373 Y85.202 E0.26798
G1 X172.893 Y85.136 E0.26715
G1 X178.423 Y84.756 E0.26825
G1 X184.114 Y84.044 E0.27755
G1 X184.397 Y84.026 E0.01372
G1 X191.191 Y84.021 E0.32879
G1 X191.419 Y84.032 E0.01105
G1 X198.344 Y84.715 E0.33675
G1 X203.831 Y84.915 E0.26571
G1 X209.386 Y84.803 E0.26888
G1 X214.87 Y84.381 E0.26617
G1 X220.372 Y83.643 E0.26865
G1 X221.654 Y83.409 E0.06307
G1 X221.759 Y83.393 E0.00514
G1 X223.566 Y83.149 E0.08824
G1 X223.878 Y83.128 E0.01513
G1 X230.647 Y83.14 E0.32758
G1 X231.074 Y83.181 E0.02076
G1 X231.602 Y83.349 E0.02681
G1 X232.062 Y83.56 E0.02449
G1 X232.433 Y83.775 E0.02075
G1 X232.758 Y84.054 E0.02073
G1 X233.072 Y84.462 E0.02491
G1 X233.2 Y84.674 E0.01198
G1 X233.386 Y85.06 E0.02074
G1 X233.498 Y85.474 E0.02076
G1 X233.531 Y85.852 E0.01836
G1 X233.551 Y89.935 E0.19759
G1 X233.513 Y90.362 E0.02075
G1 X233.453 Y90.61 E0.01235
G1 X232.884 Y92.497 E0.09538
G1 X231.478 Y97.873 E0.26891
G1 X230.492 Y102.647 E0.23591
G1 X230.367 Y103.057 E0.02074
G1 X230.168 Y103.436 E0.02072
G1 X229.902 Y103.772 E0.02074
G1 X229.578 Y104.053 E0.02075
G1 X229.208 Y104.268 E0.02071
G1 X228.804 Y104.412 E0.02076
G1 X228.239 Y104.482 E0.02755
G1 X67.795 Y104.441 E7.76445
G1 X67.369 Y104.401 E0.02071
G1 X66.957 Y104.283 E0.02074
G1 X66.574 Y104.09 E0.02075
G1 X66.234 Y103.829 E0.02074
G1 X65.948 Y103.51 E0.02073
G1 X65.726 Y103.144 E0.02072
G1 X65.6 Y102.824 E0.01664
G1 X64.267 Y98.538 E0.21721
G1 X62.408 Y93.291 E0.26939
G1 X60.634 Y88.948 E0.22703
G1 X60.509 Y88.538 E0.02074
G1 X60.463 Y88.059 E0.02329
G1 X60.466 Y87.692 E0.01776
G1 X60.509 Y87.266 E0.02072
G1 X60.631 Y86.855 E0.02075
G1 X60.794 Y86.528 E0.01768
G1 X60.935 Y86.293 E0.01326
G1 X61.188 Y85.947 E0.02074
G1 X61.502 Y85.655 E0.02075
G1 F2400 E-4.5
G0 F3600 X124.03 Y98.411
G0 X124.022 Y101.419
G0 X139.978 Y101.419
G0 X139.978 Y98.419
G0 X140.022 Y101.419
G0 X144.02 Y101.461
G0 X144.05 Y101.391
;TYPE:WALL-OUTER
G1 F3600 E4.5
G1 F1200 X147.95 Y101.391 E0.12582
G1 X147.95 Y98.316 E0.09921
G1 X148.05 Y98.316 E0.00323
G1 X148.05 Y101.391 E0.09921
G1 X151.95 Y101.391 E0.12582
G1 X151.95 Y98.316 E0.09921
G1 X152.02 Y98.316 E0.00226
G1 X152.02 Y98.391 E0.00242
G1 X152.05 Y98.391 E0.00097
G1 X152.05 Y101.391 E0.09679
G1 X155.95 Y101.391 E0.12582
G1 X155.95 Y98.316 E0.09921
G1 X155.97 Y98.316 E0.00065
G1 X155.97 Y98.391 E0.00242
G1 X156.05 Y98.391 E0.00258
G1 X156.05 Y101.391 E0.09679
G1 X159.95 Y101.391 E0.12582
G1 X159.95 Y98.391 E0.09679
G1 X160.05 Y98.391 E0.00323
G1 X160.05 Y101.391 E0.09679
G1 X163.95 Y101.391 E0.12582
G1 X163.95 Y98.391 E0.09679
G1 X164.05 Y98.391 E0.00323
G1 X164.05 Y101.391 E0.09679
G1 X167.95 Y101.391 E0.12582
G1 X167.95 Y98.391 E0.09679
G1 X168.05 Y98.391 E0.00323
G1 X168.05 Y101.391 E0.09679
G1 X171.95 Y101.391 E0.12582
G1 X171.95 Y98.391 E0.09679
G1 X172.05 Y98.391 E0.00323
G1 X172.05 Y101.391 E0.09679
G1 X175.95 Y101.391 E0.12582
G1 X175.95 Y98.391 E0.09679
G1 X176.05 Y98.391 E0.00323
G1 X176.05 Y101.391 E0.09679
G1 X179.95 Y101.391 E0.12582
G1 X179.95 Y98.391 E0.09679
G1 X180.05 Y98.391 E0.00323
G1 X180.05 Y101.391 E0.09679
G1 X183.95 Y101.391 E0.12582
G1 X183.95 Y98.391 E0.09679
G1 X184.05 Y98.391 E0.00323
G1 X184.05 Y101.391 E0.09679
G1 X187.95 Y101.391 E0.12582
G1 X187.95 Y98.391 E0.09679
G1 X188.05 Y98.391 E0.00323
G1 X188.05 Y101.391 E0.09679
G1 X191.95 Y101.391 E0.12582
G1 X191.95 Y98.391 E0.09679
G1 X192.05 Y98.391 E0.00323
G1 X192.05 Y101.391 E0.09679
G1 X195.95 Y101.391 E0.12582
G1 X195.95 Y98.391 E0.09679
G1 X196.05 Y98.391 E0.00323
G1 X196.05 Y101.391 E0.09679
G1 X199.95 Y101.391 E0.12582
G1 X199.95 Y98.391 E0.09679
G1 X200.05 Y98.391 E0.00323
G1 X200.05 Y101.391 E0.09679
G1 X203.95 Y101.391 E0.12582
G1 X203.95 Y98.391 E0.09679
G1 X204.05 Y98.391 E0.00323
G1 X204.05 Y101.391 E0.09679
G1 X207.95 Y101.391 E0.12582
G1 X207.95 Y98.391 E0.09679
G1 X208.05 Y98.391 E0.00323
G1 X208.05 Y101.391 E0.09679
G1 X211.95 Y101.391 E0.12582
G1 X211.95 Y98.391 E0.09679
G1 X212.05 Y98.391 E0.00323
G1 X212.05 Y101.391 E0.09679
G1 X215.95 Y101.391 E0.12582
G1 X215.95 Y98.391 E0.09679
G1 X216.05 Y98.391 E0.00323
G1 X216.05 Y101.391 E0.09679
G1 X219.95 Y101.391 E0.12582
G1 X219.95 Y98.391 E0.09679
G1 X220.05 Y98.391 E0.00323
G1 X220.05 Y101.391 E0.09679
G1 X223.95 Y101.391 E0.12582
G1 X223.95 Y98.391 E0.09679
G1 X224.05 Y98.391 E0.00323
G1 X224.05 Y101.391 E0.09679
G1 X227.95 Y101.391 E0.12582
G1 X227.95 Y98.391 E0.09679
G1 X228.05 Y98.391 E0.00323
G1 X228.05 Y101.991 E0.11614
G1 X67.95 Y101.991 E5.1652
G1 X67.95 Y98.391 E0.11614
G1 X68.05 Y98.391 E0.00323
G1 X68.05 Y101.391 E0.09679
G1 X71.95 Y101.391 E0.12582
G1 X71.95 Y98.391 E0.09679
G1 X72.05 Y98.391 E0.00323
G1 X72.05 Y101.391 E0.09679
G1 X75.95 Y101.391 E0.12582
G1 X75.95 Y98.391 E0.09679
G1 X76.05 Y98.391 E0.00323
G1 X76.05 Y101.391 E0.09679
G1 X79.95 Y101.391 E0.12582
G1 X79.95 Y98.391 E0.09679
G1 X80.05 Y98.391 E0.00323
G1 X80.05 Y101.391 E0.09679
G1 X83.95 Y101.391 E0.12582
G1 X83.95 Y98.391 E0.09679
G1 X84.05 Y98.391 E0.00323
G1 X84.05 Y101.391 E0.09679
G1 X87.95 Y101.391 E0.12582
G1 X87.95 Y98.391 E0.09679
G1 X88.05 Y98.391 E0.00323
G1 X88.05 Y101.391 E0.09679
G1 X91.95 Y101.391 E0.12582
G1 X91.95 Y98.391 E0.09679
G1 X92.05 Y98.391 E0.00323
G1 X92.05 Y101.391 E0.09679
G1 X95.95 Y101.391 E0.12582
G1 X95.95 Y98.391 E0.09679
G1 X96.05 Y98.391 E0.00323
G1 X96.05 Y101.391 E0.09679
G1 X99.95 Y101.391 E0.12582
G1 X99.95 Y98.391 E0.09679
G1 X100.05 Y98.391 E0.00323
G1 X100.05 Y101.391 E0.09679
G1 X103.95 Y101.391 E0.12582
G1 X103.95 Y98.391 E0.09679
G1 X104.05 Y98.391 E0.00323
G1 X104.05 Y101.391 E0.09679
G1 X107.95 Y101.391 E0.12582
G1 X107.95 Y98.391 E0.09679
G1 X108.05 Y98.391 E0.00323
G1 X108.05 Y101.391 E0.09679
G1 X111.95 Y101.391 E0.12582
G1 X111.95 Y98.391 E0.09679
G1 X112.05 Y98.391 E0.00323
G1 X112.05 Y101.391 E0.09679
G1 X115.95 Y101.391 E0.12582
G1 X115.95 Y98.391 E0.09679
G1 X116.05 Y98.391 E0.00323
G1 X116.05 Y101.391 E0.09679
G1 X119.95 Y101.391 E0.12582
G1 X119.95 Y98.391 E0.09679
G1 X120.05 Y98.391 E0.00323
G1 X120.05 Y101.391 E0.09679
G1 X123.95 Y101.391 E0.12582
G1 X123.95 Y98.391 E0.09679
G1 X124.05 Y98.391 E0.00323
G1 X124.05 Y101.391 E0.09679
G1 X127.95 Y101.391 E0.12582
G1 X127.95 Y98.391 E0.09679
G1 X128.05 Y98.391 E0.00323
G1 X128.05 Y101.391 E0.09679
G1 X131.95 Y101.391 E0.12582
G1 X131.95 Y98.391 E0.09679
G1 X132.05 Y98.391 E0.00323
G1 X132.05 Y101.391 E0.09679
G1 X135.95 Y101.391 E0.12582
G1 X135.95 Y98.391 E0.09679
G1 X136.05 Y98.391 E0.00323
G1 X136.05 Y101.391 E0.09679
G1 X139.95 Y101.391 E0.12582
G1 X139.95 Y98.391 E0.09679
G1 X140.03 Y98.391 E0.00258
G1 X140.03 Y98.316 E0.00242
G1 X140.05 Y98.316 E0.00065
G1 X140.05 Y101.391 E0.09921
G1 X143.95 Y101.391 E0.12582
G1 X143.95 Y98.391 E0.09679
G1 X143.98 Y98.391 E0.00097
G1 X143.98 Y98.316 E0.00242
G1 X144.05 Y98.316 E0.00226
G1 X144.05 Y101.391 E0.09921
G0 F3600 X143.768 Y101.791
M104 S200
G1 F1200 E-8
M82 ;absolute extrusion mode
M104 S200 ; standby temperature
G0 F3600 X258.5 Y152 ; move extruder
M83 ;relative extrusion mode
T1
M82 ;absolute extrusion mode
M109 S200
;G92 E0
;G1 F300 E5
;G92 E0
M83 ;relative extrusion mode
M105
M109 S200
G1 F2400 E-4.5
G0 F3600 X0.00 Y0.00 Z0.2
G0 F6000 X0.00 Y0.00 Z0.00
G0 F3600 X0.00 Y10 Z0.2
G0 X60.999 Y84.542
;TYPE:SKIRT
G1 F3600 E4.5
G1 F1200 X61.503 Y84.27 E0.02772
G1 X65.932 Y82.33 E0.23399
G1 X66.431 Y82.155 E0.02559
G1 X66.95 Y82.057 E0.02556
G1 X67.341 Y82.036 E0.01895
G1 X74.607 Y82.046 E0.35163
G1 X75.149 Y82.089 E0.02631
G1 X80.601 Y82.952 E0.26713
G1 X86.018 Y83.501 E0.26349
G1 X91.483 Y83.744 E0.26473
G1 X96.939 Y83.677 E0.26405
G1 X102.395 Y83.302 E0.26466
G1 X106.879 Y82.762 E0.21856
G1 X107.297 Y82.737 E0.02026
G1 X114.305 Y82.735 E0.33914
G1 X114.712 Y82.759 E0.01973
G1 X119.447 Y83.313 E0.23071
G1 X124.901 Y83.677 E0.26453
G1 X130.371 Y83.733 E0.26473
G1 X135.821 Y83.479 E0.26403
G1 X141.239 Y82.92 E0.26359
G1 X146.466 Y82.091 E0.25611
G1 X147.012 Y82.048 E0.0265
G1 X149.156 Y82.047 E0.10376
G1 X149.725 Y82.093 E0.02763
G1 X156.524 Y83.21 E0.33344
G1 X161.927 Y83.758 E0.26281
G1 X167.395 Y84.002 E0.26488
G1 X172.849 Y83.936 E0.26396
G1 X178.299 Y83.561 E0.26437
G1 X183.965 Y82.853 E0.27633
G1 X184.396 Y82.826 E0.0209
G1 X191.19 Y82.821 E0.32879
G1 X191.537 Y82.838 E0.01681
G1 X198.408 Y83.516 E0.33413
G1 X203.868 Y83.715 E0.2644
G1 X209.304 Y83.605 E0.26312
G1 X214.762 Y83.185 E0.26491
G1 X220.188 Y82.457 E0.26494
G1 X221.439 Y82.229 E0.06154
G1 X221.599 Y82.203 E0.00784
G1 X223.406 Y81.959 E0.08824
G1 X223.88 Y81.928 E0.02299
G1 X230.649 Y81.94 E0.32758
G1 X231.176 Y81.981 E0.02558
G1 X231.691 Y82.101 E0.02559
G1 X232.102 Y82.259 E0.02131
G1 X232.562 Y82.47 E0.02449
G1 X233.025 Y82.726 E0.0256
G1 X233.444 Y83.049 E0.0256
G1 X233.809 Y83.431 E0.02557
G1 X234.099 Y83.842 E0.02434
G1 X234.227 Y84.054 E0.01198
G1 X234.466 Y84.526 E0.0256
G1 X234.63 Y85.029 E0.0256
G1 X234.717 Y85.55 E0.02556
G1 X234.731 Y85.846 E0.01434
G1 X234.751 Y89.929 E0.19759
G1 X234.714 Y90.456 E0.02557
G1 X234.602 Y90.957 E0.02484
G1 X234.038 Y92.826 E0.09448
G1 X232.65 Y98.134 E0.26551
G1 X231.668 Y102.89 E0.23501
G1 X231.522 Y103.398 E0.02558
G1 X231.301 Y103.878 E0.02557
G1 X231.011 Y104.32 E0.02558
G1 X230.657 Y104.713 E0.0256
G1 X230.248 Y105.049 E0.02562
G1 X229.793 Y105.318 E0.02558
G1 X229.303 Y105.517 E0.02559
G1 X228.789 Y105.639 E0.02557
G1 X228.239 Y105.682 E0.0267
G1 X67.795 Y105.641 E7.76445
G1 X67.268 Y105.601 E0.02558
G1 X66.753 Y105.482 E0.02558
G1 X66.261 Y105.287 E0.02561
G1 X65.805 Y105.019 E0.0256
G1 X65.394 Y104.687 E0.02557
G1 X65.038 Y104.296 E0.02559
G1 X64.745 Y103.856 E0.02558
G1 X64.454 Y103.18 E0.03562
G1 X63.128 Y98.916 E0.2161
G1 X61.288 Y93.723 E0.26662
G1 X59.523 Y89.402 E0.22588
G1 X59.361 Y88.899 E0.02557
G1 X59.276 Y88.377 E0.02559
G1 X59.263 Y88.049 E0.01589
G1 X59.266 Y87.682 E0.01776
G1 X59.31 Y87.155 E0.02559
G1 X59.433 Y86.641 E0.02558
G1 X59.633 Y86.151 E0.02561
G1 X59.765 Y85.91 E0.0133
G1 X59.906 Y85.675 E0.01326
G1 X60.211 Y85.244 E0.02555
G1 X60.578 Y84.863 E0.0256
G1 X60.999 Y84.542 E0.02562
G1 F2400 E-4.5
G0 F3600 X223.663 Y90.058
G0 X226.2 Y89.936
G0 X226.13 Y89.866
;TYPE:WALL-OUTER
G1 F3600 E4.5
G1 F1200 X226.13 Y88.124 E0.0562
G1 X224.228 Y88.124 E0.06136
G1 X224.059 Y88.115 E0.00546
G1 X223.956 Y88.083 E0.00348
G1 X223.849 Y88.016 E0.00407
G1 X223.747 Y87.905 E0.00486
G1 X223.688 Y87.794 E0.00406
G1 X223.661 Y87.671 E0.00406
G1 X223.659 Y85.628 E0.06591
G1 X226.334 Y85.631 E0.0863
G1 X226.399 Y85.65 E0.00218
G1 X226.458 Y85.697 E0.00243
G1 X226.483 Y85.735 E0.00147
G1 X226.502 Y85.81 E0.0025
G1 X226.483 Y85.884 E0.00246
G1 X226.44 Y85.941 E0.0023
G1 X226.384 Y85.975 E0.00211
G1 X226.304 Y85.99 E0.00263
G1 X224.028 Y85.99 E0.07343
G1 X224.028 Y87.754 E0.05691
G1 X225.908 Y87.754 E0.06065
G1 X226.081 Y87.76 E0.00558
G1 X226.206 Y87.795 E0.00419
G1 X226.322 Y87.87 E0.00446
G1 X226.436 Y88.003 E0.00565
G1 X226.486 Y88.129 E0.00437
G1 X226.502 Y88.276 E0.00477
G1 X226.502 Y89.752 E0.04762
G1 X226.48 Y89.888 E0.00444
G1 X226.424 Y90.003 E0.00413
G1 X226.305 Y90.128 E0.00557
G1 X226.178 Y90.197 E0.00466
G1 X226.052 Y90.225 E0.00416
G1 X223.811 Y90.226 E0.0723
G1 X223.738 Y90.206 E0.00244
G1 X223.687 Y90.166 E0.00209
G1 X223.657 Y90.12 E0.00177
